!!!!SEGMENT: pl-stab--5a--001-012_dankowski-adalbert--vespere-ex-c-de-confessoribus-gloria-patri.krn
!!!cenid: 18xx:3510
!!!COM: Dankowski, Adalbert
!!!COM-rismid: pe30000793
!!!CDT: ~1760-~1836
!!!CNT: Polish
!!!OPR: Vespere ex C de Confessoribus
!!!OTL: Gloria patri
!!!OMV: 012
!!!PDT:
!!!AGN:
!!!SMS-siglum: PL-STAb
!!!SMS-shelfmark: 5a
!!!SMS-shelfwork: 001-012 M
!!!SMS-variant:
!!!SMS-altvar:
!!!NIFC-rismid: 301050557
!!!URL-scan: https://repozytorium.nifc.pl/islandora/object/pl-stab%3A1317/datastream/PDF/view
!!!ONB-nifc: UWAGA: części Nieszporów: 1. Domine ad adjuvandum, 2. Dixit Dominus, 3. Confitebor, 4. Beatus vir, 5. Laudate pueri, 6. Laudate Dominum, 7. In Exitu, 8. Magnificat, 9. Quia fecit, 10. Fecit potentiam, 11. Suscepit Israel, 12. Gloria patri
!!!key: c
**kern	**fba	**kern	**dynam	**kern	**dynam	**kern	**text	**kern	**text	**kern	**text	**kern	**text	**kern	**dynam	**kern	**dynam
*part9	*part9	*part8	*part8	*part7	*part7	*part6	*part6	*part5	*part5	*part4	*part4	*part3	*part3	*part2	*part2	*part1	*part1
*staff9	*	*staff8	*	*staff7	*	*staff6	*staff6	*staff5	*staff5	*staff4	*staff4	*staff3	*staff3	*staff2	*	*staff1	*
*	*	*group3	*	*group3	*	*group2	*	*group2	*	*group2	*	*group2	*	*group1	*	*group1	*
*I"Organo	*	*I"Violino Secondo	*	*I"Violino Primo	*	*I"Baſso.	*	*I"Tenore.	*	*I"Alto.	*	*I"Canto	*	*I"Cornu Secondo Ex C.	*	*I"Cornu Primo ex C.	*
*I'org	*	*I'vl 2	*	*I'vl 1	*	*I'B	*	*I'T	*	*I'A	*	*I'S	*	*I'cor 2 in C	*	*I'cor 1 in C	*
*Iorgan	*	*Ivioln	*	*Ivioln	*	*Ibass	*	*Itenor	*	*Ialto	*	*Isoprn	*	*Icor	*	*Icor	*
*ICklav	*	*ICstr	*	*ICstr	*	*ICvox	*	*ICvox	*	*ICvox	*	*ICvox	*	*ICbras	*	*ICbras	*
*clefF4	*	*clefG2	*	*clefG2	*	*clefF4	*	*clefC4	*	*clefC3	*	*clefC1	*	*	*	*	*
*k[b-e-a-]	*	*k[b-a-e-]	*	*k[b-e-a-]	*	*k[b-e-a-]	*	*k[b-a-e-]	*	*k[b-e-a-]	*	*k[b-e-a-]	*	*	*	*	*
*C:	*	*C:	*	*C:	*	*C:	*	*C:	*	*C:	*	*C:	*	*	*	*	*
*M3/4	*	*M3/4	*	*M3/4	*	*M3/4	*	*M3/4	*	*M3/4	*	*M3/4	*	*	*	*	*
=1	=1	=1	=1	=1	=1	=1	=1	=1	=1	=1	=1	=1	=1	=1	=1	=1	=1
!LO:TX:a:t=tutti	!	!	!	!	!	!	!	!	!	!	!	!	!	!	!	!	!
!LO:TX:a:B:t=Adagio	!	!LO:TX:a:B:t=adagio	!LO:DY:a	!LO:TX:a:B:t=adagio	!LO:DY:a	!LO:TX:a:B:t=adagio	!	!LO:TX:a:B:t=adagio.	!	!LO:TX:a:B:t=adagio	!	!LO:TX:a:B:t=Adagio.	!	!LO:TX:a:t=Gloria Tacet.	!	!LO:TX:a:t=Gloria Tacet	!
4C/	6_	8e-/	f	8r	f	4c\	Glo-	4c\	Glo-	4g\	Glo-	4.ee-\	Glo-	2.ryy	.	2.ryy	.
.	.	4e-/	.	8c/L	.	.	.	.	.	.	.	.	.	.	.	.	.
4C/	.	.	.	8e-/	.	4c\	-ri-	4c\	-ri-	4g\	-ri-	.	.	.	.	.	.
.	.	4e-/	.	8g/	.	.	.	.	.	.	.	8ee-\	-ri-	.	.	.	.
!	!	!	!	!	!	!	!	!	!	!	!	!LO:N:vis=8	!	!	!	!	!
4C/	.	.	.	8cc/	.	4c\	-a	4c\	-a	4g\	-a	4ee-\	-a	.	.	.	.
.	.	8e-/	.	8b-/J	.	.	.	.	.	.	.	.	.	.	.	.	.
=2	=2	=2	=2	=2	=2	=2	=2	=2	=2	=2	=2	=2	=2	=2	=2	=2	=2
*	*	*	*	*	*	*2\right	*	*2\right	*	*2\right	*	*2\right	*	*	*	*	*
4C/	6_ 4_	8f/	.	8b-/L	.	2c\	Pa-	2c\	Pa-	2a-\	Pa-	2ff\	Pa-	2.ryy	.	2.ryy	.
.	.	4f/	.	8a-/J	.	.	.	.	.	.	.	.	.	.	.	.	.
4C/	.	.	.	8r	.	.	.	.	.	.	.	.	.	.	.	.	.
.	.	4f/	.	8a-/L	.	.	.	.	.	.	.	.	.	.	.	.	.
4C/	.	.	.	8a-/	.	4c\	-tri	4c\	-tri	4a-\	-tri	4ff\	-tri	.	.	.	.
.	.	8f/	.	8a-/J	.	.	.	.	.	.	.	.	.	.	.	.	.
=3	=3	=3	=3	=3	=3	=3	=3	=3	=3	=3	=3	=3	=3	=3	=3	=3	=3
4C/	n7r_ 2_	8d/	.	8bn/L	.	4c\	Glo-	4.c\	Glo-	4bn\	Glo-	4dd\	Glo-	2.ryy	.	2.ryy	.
.	.	4d/	.	8d/	.	.	.	.	.	.	.	.	.	.	.	.	.
4C/	.	.	.	8g/	.	4c\	-ri-	.	.	4b\	-ri-	4dd\	-ri-	.	.	.	.
.	.	4d/	.	8b/J	.	.	.	8c\	-ri-	.	.	.	.	.	.	.	.
4C/	.	.	.	8dd\L	.	4c\	-a	4c\	-a	4b\	-a	4dd\	-a	.	.	.	.
.	.	8d/	.	8b\J	.	.	.	.	.	.	.	.	.	.	.	.	.
=4	=4	=4	=4	=4	=4	=4	=4	=4	=4	=4	=4	=4	=4	=4	=4	=4	=4
4C/	8 3_	8e-/	.	8bn\L	.	4.c\	fi-	4.c\	fi-	4.cc\	fi-	4.ee-\	fi-	2.ryy	.	2.ryy	.
.	.	4e-/	.	8cc\J	.	.	.	.	.	.	.	.	.	.	.	.	.
4C/	.	.	.	8r	.	.	.	.	.	.	.	.	.	.	.	.	.
.	.	4e-/	.	8cc\L	.	8c\	-li-	8c\	-li-	8cc\	-li-	8ee-\	-li-	.	.	.	.
4C/	.	.	.	8cc\	.	4c\	-o	4c\	-o	4cc\	-o	4ee-\	-o	.	.	.	.
.	.	8e-/	.	8cc\J	.	.	.	.	.	.	.	.	.	.	.	.	.
!	!	!LO:LB:g=original	!	!	!	!LO:LB:g=original	!	!LO:LB:g=original	!	!	!	!LO:LB:g=original	!	!	!	!	!
=5	=5	=5	=5	=5	=5	=5	=5	=5	=5	=5	=5	=5	=5	=5	=5	=5	=5
!	!	!	!	!LO:TX:a:t=P:problem:mixed beam	!	!	!	!	!	!	!	!	!	!	!	!	!
4BBn/	6_ 5_	8g/	.	8dd\L	.	2Bn\	et	2d\	et	2g\	et	2ff\	et	2.ryy	.	2.ryy	.
.	.	4g/	.	8g/J	.	.	.	.	.	.	.	.	.	.	.	.	.
4BB/	.	.	.	8bn\L	.	.	.	.	.	.	.	.	.	.	.	.	.
.	.	4g/	.	8dd\	.	.	.	.	.	.	.	.	.	.	.	.	.
4BB/	.	.	.	8gg\	.	4B\	Spi-	4d\	Spi-	4g\	Spi-	4ff\	Spi-	.	.	.	.
.	.	8g/	.	8ff\J	.	.	.	.	.	.	.	.	.	.	.	.	.
!	!	!	!	!	!	!	!	!	!	!LO:LB:g=original	!	!	!	!	!	!	!
=6	=6	=6	=6	=6	=6	=6	=6	=6	=6	=6	=6	=6	=6	=6	=6	=6	=6
4C/	x	8g/	.	8ee-\L	.	4.c\	-ri-	4.c\	-ri-	4.g\	-ri-	4.ee-\	-ri-	2.ryy	.	2.ryy	.
.	.	4g/	.	8g\	.	.	.	.	.	.	.	.	.	.	.	.	.
4C/	.	.	.	8cc\	.	.	.	.	.	.	.	.	.	.	.	.	.
.	.	4g/	.	8ee-\	.	8c\	-tu-	8c\	-tu-	8g\	-tu-	8ee-\	-tu-	.	.	.	.
4C/	.	.	.	8gg\	.	4c\	-i	4c\	-i	4g\	-i	4ee-\	-i	.	.	.	.
.	.	8g/	.	8ee-\J	.	.	.	.	.	.	.	.	.	.	.	.	.
!LO:LB:g=original	!	!	!	!	!	!	!	!	!	!	!	!	!	!	!	!	!
=7	=7	=7	=7	=7	=7	=7	=7	=7	=7	=7	=7	=7	=7	=7	=7	=7	=7
4F\	6	4a-/	.	8dd\L	.	4F\	Sa-	4d\	San-	4a-\	San-	4ff\	San-	2.ryy	.	2.ryy	.
.	.	.	.	8ff\	.	.	.	.	.	.	.	.	.	.	.	.	.
4G\	4	4g/	.	8ee-\	.	4G\	.	4c\	.	2g\	-cto	4ee-\	.	.	.	.	.
.	.	.	.	8cc\	.	.	.	.	.	.	.	.	.	.	.	.	.
4GG/	n	4f/	.	8dd\	.	4GG/	.	4Bn\	.	.	.	4dd\	.	.	.	.	.
.	.	.	.	8bn\J	.	.	.	.	.	.	.	.	.	.	.	.	.
!	!	!	!	!LO:LB:g=original	!	!	!	!	!	!	!	!	!	!	!	!	!
=8	=8	=8	=8	=8	=8	=8	=8	=8	=8	=8	=8	=8	=8	=8	=8	=8	=8
8C\L	.	4e-/	.	4cc\	.	8C/	-cto	4c\	-cto	4g\	Glo-	4ee-\	-cto	2.ryy	.	2.ryy	.
8C\	.	.	.	.	.	8C/	Glo-	.	.	.	.	.	.	.	.	.	.
8En\	6_	4cc\	.	4een\	.	8En\L	.	2g\	Glo-	2cc\	.	2een\	Glo-	.	.	.	.
8G\	.	.	.	.	.	8G\	.	.	.	.	.	.	.	.	.	.	.
8c\	.	4cc\	.	4ee\	.	8c\	.	.	.	.	.	.	.	.	.	.	.
8B-X\J	.	.	.	.	.	8B-\J	.	.	.	.	.	.	.	.	.	.	.
=9	=9	=9	=9	=9	=9	=9	=9	=9	=9	=9	=9	=9	=9	=9	=9	=9	=9
*2\right	*	*2\right	*	*	*	*	*	*	*	*	*	*	*	*	*	*	*
!	!	!	!	!LO:TX:a:t=P:problem:mixed beam	!	!	!	!	!	!	!	!	!	!	!	!	!
2.An\	6_	2.cc\	.	8ff\L	.	2.An\	-ri-	2.f\	.	2.cc\	.	2ff\	.	2.ryy	.	2.ryy	.
.	.	.	.	8f/J	.	.	.	.	.	.	.	.	.	.	.	.	.
.	.	.	.	8a-\L	.	.	.	.	.	.	.	.	.	.	.	.	.
.	.	.	.	8cc\	.	.	.	.	.	.	.	.	.	.	.	.	.
.	5	.	.	8ff\	.	.	.	.	.	.	.	4ee-X\	.	.	.	.	.
.	6	.	.	8ee-X\J	.	.	.	.	.	.	.	.	.	.	.	.	.
!	!	!	!	!	!	!LO:LB:g=original	!	!	!	!	!	!	!	!	!	!	!
=10	=10	=10	=10	=10	=10	=10	=10	=10	=10	=10	=10	=10	=10	=10	=10	=10	=10
*	*	*	*	*2\right	*	*	*	*	*	*	*	*	*	*	*	*	*
!LO:TX:a:t=P:problem:mixed beam	!	!	!	!	!	!LO:TX:a:t=P:problem:mixed beam	!	!	!	!LO:TX:a:t=P:problem:♭ above	!	!	!	!	!	!	!
8B-\L	3_	2.b-X\	.	2.dd\	.	8B-\L	-a	2.f\	.	2.b-X\	.	2.dd\	.	2.ryy	.	2.ryy	.
8BB-/J	.	.	.	.	.	8BB-/J	.	.	.	.	.	.	.	.	.	.	.
8D\L	.	.	.	.	.	8D\L	pa-	.	.	.	.	.	.	.	.	.	.
8F\	.	.	.	.	.	8F\	.	.	.	.	.	.	.	.	.	.	.
8B-\	.	.	.	.	.	8B-\	.	.	.	.	.	.	.	.	.	.	.
8A-X\J	.	.	.	.	.	8A-X\J	.	.	.	.	.	.	.	.	.	.	.
=11	=11	=11	=11	=11	=11	=11	=11	=11	=11	=11	=11	=11	=11	=11	=11	=11	=11
!	!	!	!	!LO:TX:a:t=P:problem:mixed beam	!	!	!	!	!	!	!	!	!	!	!	!	!
2.G\	6	2.b-\	.	8ee-\L	.	2.G\	.	2.e-\	.	2.b-\	.	2ee-\	.	2.ryy	.	2.ryy	.
.	.	.	.	8e-/J	.	.	.	.	.	.	.	.	.	.	.	.	.
.	.	.	.	8g\L	.	.	.	.	.	.	.	.	.	.	.	.	.
.	.	.	.	8b-\	.	.	.	.	.	.	.	.	.	.	.	.	.
.	5	.	.	8ee-\	.	.	.	.	.	.	.	4dd-X\	.	.	.	.	.
.	6	.	.	8dd-X\J	.	.	.	.	.	.	.	.	.	.	.	.	.
!	!	!	!	!	!	!	!	!	!	!	!	!LO:LB:g=original	!	!	!	!	!
=12	=12	=12	=12	=12	=12	=12	=12	=12	=12	=12	=12	=12	=12	=12	=12	=12	=12
!LO:TX:a:t=P:problem:mixed beam	!	!	!	!	!	!LO:TX:a:t=P:problem:mixed beam	!	!	!	!	!	!	!	!	!	!	!
8A-\L	3_	2.a-/	.	2.cc\	.	8A-\L	.	4.e-\	.	4.a-\	.	4.cc\	.	2.ryy	.	2.ryy	.
8AA-/J	.	.	.	.	.	8AA-/J	.	.	.	.	.	.	.	.	.	.	.
8C\L	.	.	.	.	.	8C\L	.	.	.	.	.	.	.	.	.	.	.
8E-\	.	.	.	.	.	8E-\	.	8e-\	-ri-	8a-\	-ri-	8cc\	-ri-	.	.	.	.
8A-\	.	.	.	.	.	8A-\	.	4e-\	-a	4a-\	-a	4cc\	-a	.	.	.	.
8G\J	.	.	.	.	.	8G\J	.	.	.	.	.	.	.	.	.	.	.
!	!	!	!	!	!	!	!	!LO:LB:g=original	!	!LO:LB:g=original	!	!	!	!	!	!	!
=13	=13	=13	=13	=13	=13	=13	=13	=13	=13	=13	=13	=13	=13	=13	=13	=13	=13
4F#X\	7_ n5r_	4an/	.	4cc\	.	4F#X\	.	4e-\	Pa-	4an\	Pa-	4cc\	pa-	2.ryy	.	2.ryy	.
4F#\	.	4a/	.	4cc\	.	4F#\	-tri	4e-\	-tri	4a\	-tri	4cc\	-tri	.	.	.	.
4r	.	4r	.	4r	.	4r	.	4r	.	4r	.	4r	.	.	.	.	.
=14	=14	=14	=14	=14	=14	=14	=14	=14	=14	=14	=14	=14	=14	=14	=14	=14	=14
8Fn\L	n4r_ 2_	2bn\	.	2dd\	.	4Fn\	et	4Bn\	et	4g\	et	4dd\	et	2.ryy	.	2.ryy	.
8F\	.	.	.	.	.	.	.	.	.	.	.	.	.	.	.	.	.
8F\	.	.	.	.	.	4F\	fi-	4B\	fi-	4g\	fi-	4dd\	fi-	.	.	.	.
8F\	.	.	.	.	.	.	.	.	.	.	.	.	.	.	.	.	.
8F\	.	16cc\LL	.	16ee-\LL	.	4F\	-li-	4B\	-li-	4g\	-li-	4dd\	-li-	.	.	.	.
.	.	16b\	.	16dd\	.	.	.	.	.	.	.	.	.	.	.	.	.
8F\J	.	16a-\	.	16cc\	.	.	.	.	.	.	.	.	.	.	.	.	.
.	.	16b\JJ	.	16dd\JJ	.	.	.	.	.	.	.	.	.	.	.	.	.
!LO:LB:g=original	!	!LO:LB:g=original	!	!	!	!LO:LB:g=original	!	!	!	!	!	!	!	!	!	!	!
=15	=15	=15	=15	=15	=15	=15	=15	=15	=15	=15	=15	=15	=15	=15	=15	=15	=15
8E-/L	6	4cc\	.	4ee-\	.	4E-\	-o	4c\	-o	4g\	-o	4ee-\	-o	2.ryy	.	2.ryy	.
8E-/	.	.	.	.	.	.	.	.	.	.	.	.	.	.	.	.	.
8D/	.	4bn\	.	4ff\	.	4D\	et	4Bn\	(et)	4g\	et	4ff\	et	.	.	.	.
8D/	6\	.	.	.	.	.	.	.	.	.	.	.	.	.	.	.	.
8C/	.	4cc\	.	4ee-\	.	4C/	Spi-	4c\	Spi-	4g\	Spi-	4ee-\	Spi-	.	.	.	.
8C/J	.	.	.	.	.	.	.	.	.	.	.	.	.	.	.	.	.
=16	=16	=16	=16	=16	=16	=16	=16	=16	=16	=16	=16	=16	=16	=16	=16	=16	=16
8BBn/L	6_ 5_	2dd\	.	2ff\	.	4.BBn/	-ri-	4.d\	-ri-	4.g\	-ri-	4.ff\	-ri-	2.ryy	.	2.ryy	.
8BB/	.	.	.	.	.	.	.	.	.	.	.	.	.	.	.	.	.
8BB/	.	.	.	.	.	.	.	.	.	.	.	.	.	.	.	.	.
8BB/	.	.	.	.	.	8Bny\	-tu-	8d\	-tu-	8g\	-tu-	8ff\	-tu-	.	.	.	.
8BB/	.	16ee-\LL	.	16gg\LL	.	4c\	-i	4d\	-i	4g\	-i	4ff\	-i	.	.	.	.
.	.	16dd\	.	16ff\	.	.	.	.	.	.	.	.	.	.	.	.	.
8BB/J	.	16cc\	.	16ee-\	.	.	.	.	.	.	.	.	.	.	.	.	.
.	.	16dd\JJ	.	16ff\JJ	.	.	.	.	.	.	.	.	.	.	.	.	.
!	!	!	!	!	!	!	!	!	!	!	!	!LO:LB:g=original	!	!	!	!	!
=17	=17	=17	=17	=17	=17	=17	=17	=17	=17	=17	=17	=17	=17	=17	=17	=17	=17
8C/L	3_	8cc\	.	8ee-\	.	8c\L	San-	2.c\	San-	2g\	San-	2.ee-\	San-	2.ryy	.	2.ryy	.
8BBn/	.	4cc\	.	4ee-\	.	8Bn\	.	.	.	.	.	.	.	.	.	.	.
8C/	.	.	.	.	.	8c\	.	.	.	.	.	.	.	.	.	.	.
8AA-/	.	4cc\	.	4ee-\	.	8A-\	.	.	.	.	.	.	.	.	.	.	.
8GG/	.	.	.	.	.	8G\	.	.	.	4an\	.	.	.	.	.	.	.
8FF#X/J	.	8cc\	.	8ee-\	.	8F#X\J	.	.	.	.	.	.	.	.	.	.	.
!	!	!	!	!	!	!	!	!	!	!LO:LB:g=original	!	!	!	!	!	!	!
=18	=18	=18	=18	=18	=18	=18	=18	=18	=18	=18	=18	=18	=18	=18	=18	=18	=18
!LO:TX:a:i:t=pedale&colon;	!	!LO:TX:a:i:t=dol	!	!	!	!	!	!	!	!	!	!	!	!	!	!	!
2.GG/	x	4bn\	.	8dd\L	.	4G\	-cto	4Bn\	-cto	4g\	-cto	4dd\	-cto	2.ryy	.	2.ryy	.
.	.	.	.	8gg\J	.	.	.	.	.	.	.	.	.	.	.	.	.
.	.	4Bn/	.	4.gg\	.	4r	.	4r	.	4r	.	4r	.	.	.	.	.
.	.	4c/	.	.	.	4r	.	4r	.	4r	.	4r	.	.	.	.	.
.	.	.	.	8ff#X\	.	.	.	.	.	.	.	.	.	.	.	.	.
=19	=19	=19	=19	=19	=19	=19	=19	=19	=19	=19	=19	=19	=19	=19	=19	=19	=19
2.GG/	.	4d/	.	8ff#X\	.	1.r	.	1.r	.	1.r	.	1.r	.	2.ryy	.	2.ryy	.
.	.	.	.	4ffn\	.	.	.	.	.	.	.	.	.	.	.	.	.
.	.	4g/	.	.	.	.	.	.	.	.	.	.	.	.	.	.	.
!	!	!	!	!LO:N:vis=8	!	!	!	!	!	!	!	!	!	!	!	!	!
.	.	.	.	4ee-\	.	.	.	.	.	.	.	.	.	.	.	.	.
.	.	4fn/	.	.	.	.	.	.	.	.	.	.	.	.	.	.	.
.	.	.	.	8dd\	.	.	.	.	.	.	.	.	.	.	.	.	.
!	!	!	!	!LO:LB:g=original	!	!	!	!	!	!	!	!	!	!	!	!	!
=20	=20	=20	=20	=20	=20	=20	=20	=20	=20	=20	=20	=20	=20	=20	=20	=20	=20
2.GG/	.	4e-/	.	8dd\	.	.	.	.	.	.	.	.	.	2.ryy	.	2.ryy	.
.	.	.	.	4gg\	.	.	.	.	.	.	.	.	.	.	.	.	.
.	.	4d/	.	.	.	.	.	.	.	.	.	.	.	.	.	.	.
.	.	.	.	4ff#X\	.	.	.	.	.	.	.	.	.	.	.	.	.
.	.	4c/	.	.	.	.	.	.	.	.	.	.	.	.	.	.	.
.	.	.	.	8aan\	.	.	.	.	.	.	.	.	.	.	.	.	.
=21	=21	=21	=21	=21	=21	=21	=21	=21	=21	=21	=21	=21	=21	=21	=21	=21	=21
!	!	!	!	!LO:SIC:v:s=4aan\	!	!	!	!	!	!	!	!	!	!	!	!	!
4GG/	.	4c/	.	4aa-\	.	2.r	.	2.r	.	2.r	.	2.r	.	2.ryy	.	2.ryy	.
!	!	!LO:SIC:v:s=4Bn/	!	!	!	!	!	!	!	!	!	!	!	!	!	!	!
4GG/	.	4B-/	.	4gg\	.	.	.	.	.	.	.	.	.	.	.	.	.
!LO:TX:b:i:t=Verte Sicut	!	!	!	!	!	!	!	!	!	!	!	!	!	!	!	!	!
4r	.	4r	.	4r	.	.	.	.	.	.	.	.	.	.	.	.	.
!LO:PB:g=original	!	!LO:PB:g=original	!	!	!	!LO:LB:g=original	!	!LO:LB:g=original	!	!LO:LB:g=original	!	!	!	!	!	!	!
=22||	=22||	=22||	=22||	=22||	=22||	=22||	=22||	=22||	=22||	=22||	=22||	=22||	=22||	=22||	=22||	=22||	=22||
!!!key: C
*clefC1	*	*	*	*	*	*	*	*	*	*	*	*	*	*	*	*	*
*k[]	*	*k[]	*	*k[]	*	*k[]	*	*k[]	*	*k[]	*	*k[]	*	*k[]	*	*k[]	*
*M2/2	*	*M2/2	*	*M2/2	*	*M2/2	*	*M2/2	*	*M2/2	*	*M2/2	*	*M2/2	*	*M2/2	*
*met(C.|)	*	*met(C.|)	*	*met(c|)	*	*met(C.|)	*	*met(C.|)	*	*met(C.|)	*	*met(C.|)	*	*met(C.|)	*	*met(C.|)	*
!	!	!	!	!	!	!	!	!	!	!LO:TX:a:t=8	!	!	!	!LO:TX:b:Bi:t=Sicut	!	!LO:TX:b:Bi:t=Sicut	!
!LO:TX:b:Bi:t=Sicut	!	!LO:TX:b:Bi:t=Sicut	!	!LO:TX:b:Bi:t=Sicut	!	!LO:TX:a:t=Can	!	!LO:TX:a:B:t=allo.	!	!LO:TX:a:B:t=allo.	!	!LO:TX:a:i:t=Allabreve	!	!LO:TX:a:t=Ex C.	!	!LO:TX:a:i:t=Ex C.	!
!LO:TX:a:i:t=Allabreve Capella	!	!LO:TX:a:i:t=Allabreve	!LO:DY:a	!LO:TX:a:i:t=Allabreve	!LO:DY:a	!LO:TX:a:i:t=Allabreve.	!	!LO:TX:a:i:t=Allabreve	!	!LO:TX:a:t=allabrave	!	!LO:TX:a:B:t=allo	!	!LO:TX:a:i:t=Allabreve	!LO:DY:a	!LO:TX:a:i:t=Allabreve	!LO:DY:a
2cc\|	.	00r	f	2cc\	f	00r	.	00r	.	00r	.	2cc\	Si-	00r	f	00r	f
2cc\|	.	.	.	2cc\	.	.	.	.	.	.	.	2cc\	-cut	.	.	.	.
=23	=23	=23	=23	=23	=23	=23	=23	=23	=23	=23	=23	=23	=23	=23	=23	=23	=23
2.cc\|	.	.	.	2.cc\	.	.	.	.	.	.	.	2.cc\	e-	.	.	.	.
4cc\|	.	.	.	4cc\	.	.	.	.	.	.	.	4cc\	-rat	.	.	.	.
=24	=24	=24	=24	=24	=24	=24	=24	=24	=24	=24	=24	=24	=24	=24	=24	=24	=24
4cc\|	.	.	.	4cc\	.	.	.	.	.	.	.	4cc\	in	.	.	.	.
(8dd\L	.	.	.	8dd\L	.	.	.	.	.	.	.	8dd\L	prin-	.	.	.	.
8cc\J)	.	.	.	8cc\J	.	.	.	.	.	.	.	8cc\J	.	.	.	.	.
4b\|	.	.	.	4b\	.	.	.	.	.	.	.	4b\	-ci-	.	.	.	.
4b\|	.	.	.	4b\	.	.	.	.	.	.	.	4b\	-pi-	.	.	.	.
=25	=25	=25	=25	=25	=25	=25	=25	=25	=25	=25	=25	=25	=25	=25	=25	=25	=25
2.cc\|	.	.	.	2.cc\	.	.	.	.	.	.	.	2.cc\	-o	.	.	.	.
4cc\|	.	.	.	4cc\	.	.	.	.	.	.	.	4cc\	in	.	.	.	.
!LO:LB:g=original	!	!	!	!	!	!	!	!	!	!	!	!	!	!	!	!	!
=26	=26	=26	=26	=26	=26	=26	=26	=26	=26	=26	=26	=26	=26	=26	=26	=26	=26
(4cc\|	.	00r	.	4cc\	.	00r	.	00r	.	00r	.	4cc\	prin-	00r	.	00r	.
8dd\L	.	.	.	8dd\L	.	.	.	.	.	.	.	8dd\L	.	.	.	.	.
8cc\J)	.	.	.	8cc\J	.	.	.	.	.	.	.	8cc\J	.	.	.	.	.
4b\|	.	.	.	4b\	.	.	.	.	.	.	.	4b\	-ci-	.	.	.	.
4b\|	.	.	.	4b\	.	.	.	.	.	.	.	4b\	-pi-	.	.	.	.
!	!	!	!	!	!	!	!	!	!	!	!	!LO:LB:g=original	!	!	!	!	!
=27	=27	=27	=27	=27	=27	=27	=27	=27	=27	=27	=27	=27	=27	=27	=27	=27	=27
2.cc\|	.	.	.	2.cc\	.	.	.	.	.	.	.	2.cc\	-o	.	.	.	.
4cc#X\|	.	.	.	4cc#X\	.	.	.	.	.	.	.	4cc#X\	(et)	.	.	.	.
=28	=28	=28	=28	=28	=28	=28	=28	=28	=28	=28	=28	=28	=28	=28	=28	=28	=28
4dd\|	.	.	.	4dd\	.	.	.	.	.	.	.	4dd\	nunc	.	.	.	.
4ccn\|	.	.	.	4ccn\	.	.	.	.	.	.	.	4ccn\	.	.	.	.	.
4b\|	.	.	.	4b\	.	.	.	.	.	.	.	4b\	et	.	.	.	.
(8cc\L	.	.	.	8cc\L	.	.	.	.	.	.	.	8cc\L	Sem-	.	.	.	.
8b\J)	.	.	.	8b\J	.	.	.	.	.	.	.	8b\J	.	.	.	.	.
!	!	!	!	!LO:LB:g=original	!	!	!	!	!	!	!	!	!	!	!	!	!
=29	=29	=29	=29	=29	=29	=29	=29	=29	=29	=29	=29	=29	=29	=29	=29	=29	=29
1a	.	.	.	1a	.	.	.	.	.	.	.	1a	.	.	.	.	.
=30	=30	=30	=30	=30	=30	=30	=30	=30	=30	=30	=30	=30	=30	=30	=30	=30	=30
*^	*	*	*	*	*	*	*	*	*	*	*	*	*	*	*	*	*
!	!	!	!	!	!	!	!LO:TX:a:t=Alt	!	!	!	!	!	!	!	!	!	!	!
4g/	2g\	.	2g/	.	4g/	.	00r	.	00r	.	2g\	Si-	4g\	-per	00r	.	00r	.
8b/L	.	.	.	.	8b\L	.	.	.	.	.	.	.	8b\L	et	.	.	.	.
8dd/J	.	.	.	.	8dd\J	.	.	.	.	.	.	.	8dd\J	.	.	.	.	.
4gg/	2g\	.	2g/	.	4gg\	.	.	.	.	.	2g\	-cut	4gg\	in	.	.	.	.
4ff#X/	.	.	.	.	4ff#X\	.	.	.	.	.	.	.	4ff#X\	.	.	.	.	.
=31	=31	=31	=31	=31	=31	=31	=31	=31	=31	=31	=31	=31	=31	=31	=31	=31	=31	=31
4ee/	2.g\	.	2.g/	.	4ee\	.	.	.	.	.	2.g\	e-	4ee\	Sae-	.	.	.	.
4dd/	.	.	.	.	4dd\	.	.	.	.	.	.	.	4dd\	.	.	.	.	.
4cc/	.	.	.	.	4cc\	.	.	.	.	.	.	.	4cc\	-cu-	.	.	.	.
4b/	4g\	.	4g/	.	4b\	.	.	.	.	.	4g\	-rat	4b\	-la	.	.	.	.
=32	=32	=32	=32	=32	=32	=32	=32	=32	=32	=32	=32	=32	=32	=32	=32	=32	=32	=32
2.cc/	4g\	.	4g/	.	2.cc\	.	.	.	.	.	4g\	in	2.cc\	Se-	.	.	.	.
.	8a\L	.	8a/L	.	.	.	.	.	.	.	8a\L	prin-	.	.	.	.	.	.
.	8g\J	.	8g/J	.	.	.	.	.	.	.	8g\J	.	.	.	.	.	.	.
.	4f#X\	.	4f#X/	.	.	.	.	.	.	.	4f#X\	-ci-	.	.	.	.	.	.
8dd/L	4f#\	.	4f#/	.	8dd\L	.	.	.	.	.	4f#\	-pi-	8dd\L	-cu-	.	.	.	.
8cc/J	.	.	.	.	8cc\J	.	.	.	.	.	.	.	8cc\J	.	.	.	.	.
!	!	!	!	!	!	!	!	!	!	!	!	!	!LO:LB:g=original	!	!	!	!	!
=33	=33	=33	=33	=33	=33	=33	=33	=33	=33	=33	=33	=33	=33	=33	=33	=33	=33	=33
4b/	2.g\	.	2.g/	.	4b\	.	.	.	.	.	2.g\	-o	4b\	-lo-	.	.	.	.
4dd/	.	.	.	.	4dd\	.	.	.	.	.	.	.	4dd\	rum	.	.	.	.
4g/	.	.	.	.	4g/	.	.	.	.	.	.	.	4g\	a-	.	.	.	.
8a/L	4g\	.	4g/	.	8a/L	.	.	.	.	.	4g\	in	8a\L	-men	.	.	.	.
8b/J	.	.	.	.	8b/J	.	.	.	.	.	.	.	8b\J	.	.	.	.	.
!	!	!	!	!	!	!	!	!	!	!	!LO:LB:g=original	!	!	!	!	!	!	!
=34	=34	=34	=34	=34	=34	=34	=34	=34	=34	=34	=34	=34	=34	=34	=34	=34	=34	=34
2.cc/	4g\	.	4g/	.	2.cc\	.	00r	.	00r	.	4g\	prin-	2.cc\	a-	00r	.	00r	.
.	8a\L	.	8a/L	.	.	.	.	.	.	.	8a\L	.	.	.	.	.	.	.
.	8g\J	.	8g/J	.	.	.	.	.	.	.	8g\J	.	.	.	.	.	.	.
.	4f#X\	.	4f#X/	.	.	.	.	.	.	.	4f#X\	-ci-	.	.	.	.	.	.
8dd/L	4f#\	.	4f#/	.	8dd\L	.	.	.	.	.	4f#\	-pi-	8dd\L	.	.	.	.	.
8cc/J	.	.	.	.	8cc\J	.	.	.	.	.	.	.	8cc\J	.	.	.	.	.
!	!	!	!LO:LB:g=original	!	!	!	!	!	!	!	!	!	!	!	!	!	!	!
=35	=35	=35	=35	=35	=35	=35	=35	=35	=35	=35	=35	=35	=35	=35	=35	=35	=35	=35
4b/	2.g\	.	2.g/	.	4b\	.	.	.	.	.	2.g\	-o	4b\	.	.	.	.	.
4dd/	.	.	.	.	4dd\	.	.	.	.	.	.	.	4dd\	.	.	.	.	.
4g/	.	.	.	.	4g/	.	.	.	.	.	.	.	4g\	.	.	.	.	.
8a/L	4fn\	.	4fn/	.	8a/L	.	.	.	.	.	4fn\	et	8a\L	.	.	.	.	.
8b/J	.	.	.	.	8b/J	.	.	.	.	.	.	.	8b\J	.	.	.	.	.
!LO:LB:g=original	!	!	!	!	!	!	!	!	!	!	!	!	!	!	!	!	!	!
=36	=36	=36	=36	=36	=36	=36	=36	=36	=36	=36	=36	=36	=36	=36	=36	=36	=36	=36
4cc/	2.g\	.	2.e/	.	4cc\	.	.	.	.	.	2.e\	nunc	4cc\	.	.	.	.	.
4g/	.	.	.	.	4g/	.	.	.	.	.	.	.	4g\	.	.	.	.	.
2cc/	.	.	.	.	2cc\	.	.	.	.	.	.	.	2cc\	.	.	.	.	.
.	8f\L	.	8f/L	.	.	.	.	.	.	.	8f\L	.	.	.	.	.	.	.
.	8e\J	.	8e/J	.	.	.	.	.	.	.	8e\J	et	.	.	.	.	.	.
=37	=37	=37	=37	=37	=37	=37	=37	=37	=37	=37	=37	=37	=37	=37	=37	=37	=37	=37
2cc/	1d	.	1d	.	2cc\	.	.	.	.	.	1d	Sem-	2cc\	.	.	.	.	.
2b/	.	.	.	.	2b\	.	.	.	.	.	.	.	2b\	.	.	.	.	.
!	!	!	!	!	!	!	!	!	!	!	!	!	!LO:LB:g=original	!	!	!	!	!
=38	=38	=38	=38	=38	=38	=38	=38	=38	=38	=38	=38	=38	=38	=38	=38	=38	=38	=38
!	!	!	!	!	!	!	!LO:TX:a:t=Tenor	!	!	!	!	!	!	!	!	!	!	!
2cc/	2c\	.	4c/	.	2cc\	.	00r	.	2r	.	4c\	-per	2cc\	-men	00r	.	00r	.
.	.	.	8e/L	.	.	.	.	.	.	.	8e\L	.	.	.	.	.	.	.
.	.	.	8g/J	.	.	.	.	.	.	.	8g\J	.	.	.	.	.	.	.
*clefC4	*	*	*	*	*	*	*	*	*	*	*	*	*	*	*	*	*	*
2c\	2ryy	.	4cc\	.	4ee\	.	.	.	4c\	Si-	4cc\	(et)	4ee\	a-	.	.	.	.
.	.	.	4b\	.	4gg\	.	.	.	4c\	-cut	4b\	in	4gg\	.	.	.	.	.
*v	*v	*	*	*	*	*	*	*	*	*	*	*	*	*	*	*	*	*
!	!	!	!	!	!	!	!	!	!	!LO:LB:g=original	!	!	!	!	!	!	!
=39	=39	=39	=39	=39	=39	=39	=39	=39	=39	=39	=39	=39	=39	=39	=39	=39	=39
2.c\	.	4a/	.	4ff\	.	.	.	2.c\	e-	4a\	Se-	4ff\	.	.	.	.	.
.	.	4g/	.	4ee\	.	.	.	.	.	4g\	.	4ee\	.	.	.	.	.
.	.	4f/	.	4dd\	.	.	.	.	.	4f\	-cu-	4dd\	.	.	.	.	.
4c\	.	4e/	.	4cc\	.	.	.	4c\	-rat	4e\	-la	4cc\	.	.	.	.	.
=40	=40	=40	=40	=40	=40	=40	=40	=40	=40	=40	=40	=40	=40	=40	=40	=40	=40
4c\	4_ 2_	2.f/	.	1dd	.	.	.	4c\	in	2.f\	Sae-	1dd	.	.	.	.	.
8d\L	.	.	.	.	.	.	.	8d\L	prin-	.	.	.	.	.	.	.	.
8c\J	.	.	.	.	.	.	.	8c\J	.	.	.	.	.	.	.	.	.
4B\	6_ 5_	.	.	.	.	.	.	4B\	-ci-	.	.	.	.	.	.	.	.
4B\	.	8g/L	.	.	.	.	.	4B\	-pi-	8g\L	-cu-	.	.	.	.	.	.
.	.	8f/J	.	.	.	.	.	.	.	8f\J	.	.	.	.	.	.	.
=41	=41	=41	=41	=41	=41	=41	=41	=41	=41	=41	=41	=41	=41	=41	=41	=41	=41
2.c\	3	4e/	.	4cc\	.	.	.	2.c\	-o	4e\	-lo-	4cc\	-men	.	.	.	.
.	.	4g/	.	8ee\L	.	.	.	.	.	4g\	.	8ee\L	a-	.	.	.	.
.	.	.	.	8ff\J	.	.	.	.	.	.	.	8ff\J	.	.	.	.	.
.	.	4c/	.	4ee\	.	.	.	.	.	4c\	-rum	4ee\	.	.	.	.	.
4c\	.	8d/L	.	4cc\	.	.	.	4c\	in	8d\L	a-	4cc\	.	.	.	.	.
.	.	8e/J	.	.	.	.	.	.	.	8e\J	.	.	.	.	.	.	.
!LO:LB:g=original	!	!	!	!LO:LB:g=original	!	!	!	!LO:LB:g=original	!	!	!	!	!	!	!	!	!
=42	=42	=42	=42	=42	=42	=42	=42	=42	=42	=42	=42	=42	=42	=42	=42	=42	=42
4c\	4_ 2_	2.f/	.	1dd	.	00r	.	4c\	prin-	2.f\	.	1dd	.	00r	.	00r	.
8d\L	.	.	.	.	.	.	.	8d\L	.	.	.	.	.	.	.	.	.
8c\J	.	.	.	.	.	.	.	8c\J	.	.	.	.	.	.	.	.	.
4B\	6 5	.	.	.	.	.	.	4B\	-ci-	.	.	.	.	.	.	.	.
4B\	.	8g/L	.	.	.	.	.	4B\	-pi-	8g\L	.	.	.	.	.	.	.
.	.	8f/J	.	.	.	.	.	.	.	8f\J	.	.	.	.	.	.	.
!	!	!LO:LB:g=original	!	!	!	!	!	!	!	!LO:LB:g=original	!	!	!	!	!	!	!
=43	=43	=43	=43	=43	=43	=43	=43	=43	=43	=43	=43	=43	=43	=43	=43	=43	=43
2.c\	3	4e/	.	2cc\	.	.	.	2.c\	-o	4e\	.	2cc\	-men	.	.	.	.
.	.	8f/L	.	.	.	.	.	.	.	8f#X\L	.	.	.	.	.	.	.
.	.	8g/J	.	.	.	.	.	.	.	8g\J	.	.	.	.	.	.	.
.	6	4a/	.	2ee\	.	.	.	.	.	4a\	.	2ee\	a-	.	.	.	.
4c#X\	5	4g/	.	.	.	.	.	4c#X\	et	4g\	.	.	.	.	.	.	.
!	!	!	!	!	!	!	!	!	!	!	!	!LO:LB:g=original	!	!	!	!	!
=44	=44	=44	=44	=44	=44	=44	=44	=44	=44	=44	=44	=44	=44	=44	=44	=44	=44
4d\	3_	2f#X/	.	2.dd\	.	.	.	4d\	nunc	2f#X\	.	2.dd\	.	.	.	.	.
4cn\	.	.	.	.	.	.	.	4cn\	.	.	.	.	.	.	.	.	.
4B\	6	2g/	.	.	.	.	.	4B\	et	2g\	.	.	.	.	.	.	.
8c\L	.	.	.	8ee\L	.	.	.	8c\L	Sem-	.	.	8ee\L	.	.	.	.	.
8B\J	.	.	.	8dd\J	.	.	.	8B\J	.	.	.	8dd\J	.	.	.	.	.
=45	=45	=45	=45	=45	=45	=45	=45	=45	=45	=45	=45	=45	=45	=45	=45	=45	=45
1A	7	2g/	.	4cc\	.	.	.	1A	.	2g\	.	4cc\	.	.	.	.	.
.	.	.	.	8b\L	.	.	.	.	.	.	.	8b\L	.	.	.	.	.
.	.	.	.	8cc\J	.	.	.	.	.	.	.	8cc\J	.	.	.	.	.
.	6	2f#X/	.	4dd\	.	.	.	.	.	2f#X\	.	4dd\	.	.	.	.	.
.	.	.	.	4cc\	.	.	.	.	.	.	.	4cc\	.	.	.	.	.
=46	=46	=46	=46	=46	=46	=46	=46	=46	=46	=46	=46	=46	=46	=46	=46	=46	=46
2G/	.	2g/	.	2b\	.	2r	.	4G/	-per	2g\	-men	2b\	-men	2r	.	2r	.
.	.	.	.	.	.	.	.	8B\L	(et)	.	.	.	.	.	.	.	.
.	.	.	.	.	.	.	.	8d\J	.	.	.	.	.	.	.	.	.
*clefF4	*	*	*	*	*	*	*	*	*	*	*	*	*	*	*	*2\right	*
!	!	!	!	!	!	!	!	!	!	!	!	!LO:TX:a:t=c	!	!	!	!	!
2G\	3_	4b\	.	2cc\	.	4G\	Si-	4g\	in	4b\	a-	4dd\	Si-	2g/	.	2dd\	.
!	!	!	!	!	!	!	!	!	!	!	!	!LO:TX:a:t=c	!	!	!	!	!
.	.	4dd\	.	.	.	4G\	-cut	4f#X\	.	4dd\	.	4dd\	-cut	.	.	.	.
!	!	!	!	!	!	!	!	!LO:LB:g=original	!	!	!	!	!	!	!	!	!
=47	=47	=47	=47	=47	=47	=47	=47	=47	=47	=47	=47	=47	=47	=47	=47	=47	=47
2.G\	.	4cc\	.	2.dd\	.	2.G\	e-	4e\	Se-	4cc\	.	2.dd\	e-	2g/	.	2dd\	.
.	.	4b\	.	.	.	.	.	4d\	.	4b\	.	.	.	.	.	.	.
.	.	4a/	.	.	.	.	.	4c\	-cu-	4a\	.	.	.	2g/	.	2dd\	.
4G\	.	4g/	.	4dd\	.	4G\	-rat	4B\	-la	4g\	.	4dd\	-rat	.	.	.	.
!LO:LB:g=original	!	!	!	!	!	!	!	!	!	!LO:LB:g=original	!	!	!	!	!	!	!
=48	=48	=48	=48	=48	=48	=48	=48	=48	=48	=48	=48	=48	=48	=48	=48	=48	=48
*	*	*	*	*	*	*	*	*	*	*	*	*	*	*2\right	*	*	*
4G\	4_ 2_	1a	.	2ee\	.	4G\	in	2.c\	Se-	1a	.	2ee\	in	2cc\	.	2ee\	.
8A\L	.	.	.	.	.	8A\L	prin-	.	.	.	.	.	.	.	.	.	.
8G\J	.	.	.	.	.	8G\J	.	.	.	.	.	.	.	.	.	.	.
!	!	!	!	!	!	!LO:LB:g=original	!	!	!	!	!	!	!	!	!	!	!
4F#X\	6_ 5_	.	.	2dd\	.	4F#X\	-ci-	.	.	.	.	2dd\	prin-	2cc\	.	2dd\	.
4F#\	.	.	.	.	.	4F#\	-pi-	8d\L	-cu-	.	.	.	.	.	.	.	.
.	.	.	.	.	.	.	.	8c\J	.	.	.	.	.	.	.	.	.
!	!	!	!	!	!	!	!	!	!	!	!	!LO:LB:g=original	!	!	!	!	!
=49	=49	=49	=49	=49	=49	=49	=49	=49	=49	=49	=49	=49	=49	=49	=49	=49	=49
2.G\	3_	4g/	.	2.dd\	.	2.G\	-o	4B\	-lo-	4g\	-men	2.dd\	-ci-	1g	.	1dd	.
.	.	8b\L	.	.	.	.	.	4d\	.	8b\L	a-	.	.	.	.	.	.
.	.	8cc\J	.	.	.	.	.	.	.	8cc\J	.	.	.	.	.	.	.
.	.	4b\	.	.	.	.	.	4G/	-rum	4b\	.	.	.	.	.	.	.
4G\	.	4g/	.	4dd\	.	4G\	in	8A\L	a-	4g\	.	4dd\	-pi-	.	.	.	.
.	.	.	.	.	.	.	.	8B\J	.	.	.	.	.	.	.	.	.
=50	=50	=50	=50	=50	=50	=50	=50	=50	=50	=50	=50	=50	=50	=50	=50	=50	=50
4G\	4_ 2_	1a	.	2ee\	.	4G\	prin-	2.c\	.	1a	.	2ee\	-o	2cc\	.	2ee\	.
8A\L	.	.	.	.	.	8A\L	.	.	.	.	.	.	.	.	.	.	.
8G\J	.	.	.	.	.	8G\J	.	.	.	.	.	.	.	.	.	.	.
4F#X\	6_ 5_	.	.	2dd\	.	4F#X\	-ci-	.	.	.	.	2dd\	et	2dd\	.	2dd\	.
4F#\	.	.	.	.	.	4F#\	-pi-	8d\L	.	.	.	.	.	.	.	.	.
.	.	.	.	.	.	.	.	8c\J	.	.	.	.	.	.	.	.	.
!	!	!LO:LB:g=original	!	!	!	!	!	!	!	!	!	!	!	!LO:LB:g=original	!	!LO:LB:g=original	!
=51	=51	=51	=51	=51	=51	=51	=51	=51	=51	=51	=51	=51	=51	=51	=51	=51	=51
2.G\	3_	1g	.	2.dd\	.	2.G\	-o	4B\	.	1g	-men	2.dd\	nunc	1g	.	1dd	.
.	.	.	.	.	.	.	.	4d\	.	.	.	.	.	.	.	.	.
.	.	.	.	.	.	.	.	4G/	.	.	.	.	.	.	.	.	.
4Fn\	.	.	.	4dd\	.	4Fn\	et	8A/L	.	.	.	4dd\	et	.	.	.	.
.	.	.	.	.	.	.	.	8B/J	.	.	.	.	.	.	.	.	.
!	!	!	!	!	!	!	!	!LO:LB:g=original	!	!	!	!	!	!	!	!	!
=52	=52	=52	=52	=52	=52	=52	=52	=52	=52	=52	=52	=52	=52	=52	=52	=52	=52
2.E\	6_	1g	.	1ee	.	2.E\	nunc	4c\	.	1g	a-	1ee	Sem-	1cc	.	1ee	.
.	.	.	.	.	.	.	.	4G/	.	.	.	.	.	.	.	.	.
.	.	.	.	.	.	.	.	2c\	.	.	.	.	.	.	.	.	.
8F\L	.	.	.	.	.	8F\L	et	.	.	.	.	.	.	.	.	.	.
8E\J	.	.	.	.	.	8E\J	.	.	.	.	.	.	.	.	.	.	.
!	!	!	!	!	!	!LO:LB:g=original	!	!	!	!	!	!	!	!	!	!	!
=53	=53	=53	=53	=53	=53	=53	=53	=53	=53	=53	=53	=53	=53	=53	=53	=53	=53
1D	7	2a/	.	4ffn\	.	1D	Sem-	2c\	.	2a\	.	1ff	.	2dd\	.	1ff	.
.	.	.	.	8ee\L	.	.	.	.	.	.	.	.	.	.	.	.	.
.	.	.	.	8ff\J	.	.	.	.	.	.	.	.	.	.	.	.	.
.	6	2g/	.	4gg\	.	.	.	2B\	.	2g\	.	.	.	2g/	.	.	.
!	!	!	!	!LO:TX:b:i:t=Verte Subitto	!	!	!	!	!	!	!	!	!	!	!	!	!
.	.	.	.	4ff\	.	.	.	.	.	.	.	.	.	.	.	.	.
!LO:LB:g=original	!	!	!	!LO:PB:g=original	!	!	!	!	!	!	!	!	!	!	!	!	!
=54	=54	=54	=54	=54	=54	=54	=54	=54	=54	=54	=54	=54	=54	=54	=54	=54	=54
4C/	.	2g/	.	2ee\	.	4C/	-per	2c\	-men	2g\	-men	2ee\	-per	1cc	.	1ee	.
8E\L	.	.	.	.	.	8E\L	et	.	.	.	.	.	.	.	.	.	.
8G\J	.	.	.	.	.	8G\J	.	.	.	.	.	.	.	.	.	.	.
4c\	.	2g/	.	2cc\	.	4c\	in	4e\	a-	4g\	et	4cc\	Si-	.	.	.	.
4B\	.	.	.	.	.	4B\	.	4g\	.	4g\	in	4cc\	-cut	.	.	.	.
!	!	!	!	!	!	!	!	!	!	!LO:LB:g=original	!	!	!	!	!	!	!
=55	=55	=55	=55	=55	=55	=55	=55	=55	=55	=55	=55	=55	=55	=55	=55	=55	=55
4A\	.	2.g/	.	2.cc\	.	4A\	Sae-	4f\	.	2g\	Se-	2.cc\	e-	1cc	.	1ee	.
4G\	.	.	.	.	.	4G\	.	4e\	.	.	.	.	.	.	.	.	.
4F\	.	.	.	.	.	4F\	-cu-	4d\	.	4g\	-cu-	.	.	.	.	.	.
!	!	!	!	!	!	!	!	!	!	!	!	!LO:TX:b:i:t=Verte Subitto	!	!	!	!	!
4E\	.	4g/	.	4cc\	.	4E\	-la	4c\	.	4g\	-la	4cc\	-rat	.	.	.	.
!	!	!	!	!	!	!	!	!	!	!	!	!LO:PB:g=original	!	!	!	!	!
=56	=56	=56	=56	=56	=56	=56	=56	=56	=56	=56	=56	=56	=56	=56	=56	=56	=56
2.F\	6 5	2a/	.	4cc\	.	2.F\	Sae-	1d	.	2a\	Sae-	4cc\	in	2cc\	.	1dd	.
.	.	.	.	8dd\L	.	.	.	.	.	.	.	8dd\L	prin-	.	.	.	.
.	.	.	.	8cc\J	.	.	.	.	.	.	.	8cc\J	.	.	.	.	.
!	!	!	!	!LO:TX:a:t=h	!	!	!	!	!	!	!	!	!	!	!	!	!
.	4_ 2_	2g/	.	4b\	.	.	.	.	.	2g\	-cu-	4b\	-ci-	2g/	.	.	.
8G\L	.	.	.	4b\	.	8G\L	-cu-	.	.	.	.	4b\	-pi-	.	.	.	.
8F\J	.	.	.	.	.	8F\J	.	.	.	.	.	.	.	.	.	.	.
=57	=57	=57	=57	=57	=57	=57	=57	=57	=57	=57	=57	=57	=57	=57	=57	=57	=57
4E\	6_	2.g/	.	2.cc\	.	4E\	-lo-	4c\	-men	2.g\	-lo-	2.cc\	-o	2cc\	.	1ee	.
4G\	.	.	.	.	.	4G\	.	8e\L	a-	.	.	.	.	.	.	.	.
.	.	.	.	.	.	.	.	8f\J	.	.	.	.	.	.	.	.	.
!	!	!	!	!	!	!	!	!LO:LB:g=original	!	!	!	!	!	!	!	!	!
4C/	.	.	.	.	.	4C/	-rum	4e\	.	.	.	.	.	2cc\	.	.	.
8D\L	.	4g/	.	4cc\	.	8D\L	a-	4c\	.	4g\	-rum	4cc\	in	.	.	.	.
8E\J	.	.	.	.	.	8E\J	.	.	.	.	.	.	.	.	.	.	.
!	!	!	!	!	!	!LO:LB:g=original	!	!	!	!	!	!	!	!	!	!	!
=58	=58	=58	=58	=58	=58	=58	=58	=58	=58	=58	=58	=58	=58	=58	=58	=58	=58
*	*	*	*	*	*	*	*	*	*	*	*ij	*	*	*	*	*	*
2.F\	6 5	2a/	.	4cc\	.	2.F\	.	1d	.	2a\	Sae-	4cc\	prin-	2cc\	.	1dd	.
.	.	.	.	8dd\L	.	.	.	.	.	.	.	8dd\L	.	.	.	.	.
.	.	.	.	8cc\J	.	.	.	.	.	.	.	8cc\J	.	.	.	.	.
.	4_ 2_	2g/	.	4b\	.	.	.	.	.	2g\	-cu-	4b\	-ci-	2g/	.	.	.
8G\L	.	.	.	4b\	.	8G\L	.	.	.	.	.	4b\	-pi-	.	.	.	.
8F\J	.	.	.	.	.	8F\J	.	.	.	.	.	.	.	.	.	.	.
=59	=59	=59	=59	=59	=59	=59	=59	=59	=59	=59	=59	=59	=59	=59	=59	=59	=59
4E\	6_	2.g/	.	2.cc\	.	4E\	.	4c\	-men	2.g\	-lo-	2.cc\	-o	1cc	.	1ee	.
4G\	.	.	.	.	.	4G\	.	8e\L	a-	.	.	.	.	.	.	.	.
.	.	.	.	.	.	.	.	8f\J	.	.	.	.	.	.	.	.	.
!LO:LB:g=original	!	!	!	!	!	!	!	!	!	!	!	!	!	!	!	!	!
4C/	.	.	.	.	.	4C/	.	4e\	.	.	.	.	.	.	.	.	.
8D\L	.	4g/	.	4b-X\	.	8D\L	.	4c\	.	4g\	-rum	4b-X\	(et)	.	.	.	.
*	*	*	*	*	*	*	*	*	*	*	*Xij	*	*	*	*	*	*
8E\J	.	.	.	.	.	8E\J	.	.	.	.	.	.	.	.	.	.	.
!	!	!	!	!	!	!	!	!	!	!LO:PB:g=original	!	!	!	!	!	!	!
=60	=60	=60	=60	=60	=60	=60	=60	=60	=60	=60	=60	=60	=60	=60	=60	=60	=60
2.F\	3	1a	.	4a\	.	2.F\	.	2.f\	.	1a	a-	4a\	nunc	2.dd\	.	2.gg\	.
.	.	.	.	8bn\L	.	.	.	.	.	.	.	8bn\L	(et)	.	.	.	.
.	.	.	.	8cc\J	.	.	.	.	.	.	.	8cc\J	.	.	.	.	.
!	!	!	!	!	!	!	!	!	!	!	!	!LO:LB:g=original	!	!	!	!	!
.	6	.	.	4dd\	.	.	.	.	.	.	.	4dd\	Sem-	.	.	.	.
4F#X\	5	.	.	4cc\	.	4F#X\	.	4e\	.	.	.	4cc\	-per	4cc\	.	4ee\	.
!	!	!	!	!	!	!	!	!	!	!	!	!	!	!LO:LB:g=original	!	!	!
=61	=61	=61	=61	=61	=61	=61	=61	=61	=61	=61	=61	=61	=61	=61	=61	=61	=61
*^	*	*	*	*	*	*	*	*	*	*	*	*	*	*	*	*	*
2G\	2ryy	3	2g/	.	4b\	.	2G\	-men	2d\	-men	2g\	-men	2b\	(et)	2g/	.	2dd\	.
.	.	.	.	.	8b\L	.	.	.	.	.	.	.	.	.	.	.	.	.
.	.	.	.	.	8dd\J	.	.	.	.	.	.	.	.	.	.	.	.	.
*clefC1	*	*	*	*	*	*	*	*	*	*	*	*	*	*	*	*	*	*
4gg/	2g\	.	2g/	.	4gg\	.	2r	.	2r	.	4g\	Si-	4gg\	.	2r	.	2r	.
4ff#X/	.	.	.	.	4ff#X\	.	.	.	.	.	4g\	-cut	4ff#X\	in	.	.	.	.
!	!	!	!LO:LB:g=original	!	!	!	!	!	!	!	!	!	!	!	!	!	!	!
=62	=62	=62	=62	=62	=62	=62	=62	=62	=62	=62	=62	=62	=62	=62	=62	=62	=62	=62
!	!	!	!	!	!	!	!	!	!	!	!	!	!	!	!LO:TX:a:t=8	!	!	!
4ee/	2.g\	.	2.g/	.	4ee\	.	00r	.	00r	.	2.g\	e-	4ee\	Se-	00r	.	00r	.
4dd/	.	.	.	.	4dd\	.	.	.	.	.	.	.	4dd\	.	.	.	.	.
4cc/	.	.	.	.	4cc\	.	.	.	.	.	.	.	4cc\	-cu-	.	.	.	.
4b/	4g\	.	4g/	.	4b\	.	.	.	.	.	4g\	-rat	4b\	-la	.	.	.	.
=63	=63	=63	=63	=63	=63	=63	=63	=63	=63	=63	=63	=63	=63	=63	=63	=63	=63	=63
2.cc/	4g\	.	4g/	.	2.cc\	.	.	.	.	.	4g\	in	2.cc\	Se-	.	.	.	.
.	8a\L	.	8a/L	.	.	.	.	.	.	.	8a\L	prin-	.	.	.	.	.	.
.	8g\J	.	8g/J	.	.	.	.	.	.	.	8g\J	.	.	.	.	.	.	.
.	4f#X\	.	4f#X/	.	.	.	.	.	.	.	4f#X\	-ci-	.	.	.	.	.	.
8dd/L	4f#\	.	4f#/	.	8dd\L	.	.	.	.	.	4f#\	-pi-	8dd\L	-cu-	.	.	.	.
8cc/J	.	.	.	.	8cc\J	.	.	.	.	.	.	.	8cc\J	.	.	.	.	.
!LO:LB:g=original	!	!	!	!	!	!	!	!	!	!	!	!	!	!	!	!	!	!
=64	=64	=64	=64	=64	=64	=64	=64	=64	=64	=64	=64	=64	=64	=64	=64	=64	=64	=64
4b/	2.g\	.	2.g/	.	4b\	.	.	.	.	.	2.g\	-o	4b\	-lo-	.	.	.	.
4dd/	.	.	.	.	4dd\	.	.	.	.	.	.	.	4dd\	-rum	.	.	.	.
4g/	.	.	.	.	4g/	.	.	.	.	.	.	.	4g\	a-	.	.	.	.
8a/L	4g\	.	4g/	.	8a/L	.	.	.	.	.	4g\	in	8a\L	-men	.	.	.	.
8b/J	.	.	.	.	8b/J	.	.	.	.	.	.	.	8b\J	.	.	.	.	.
!	!	!	!	!	!	!	!	!	!	!	!LO:LB:g=original	!	!LO:LB:g=original	!	!	!	!	!
=65	=65	=65	=65	=65	=65	=65	=65	=65	=65	=65	=65	=65	=65	=65	=65	=65	=65	=65
2.cc/	4g\	.	4g/	.	2.cc\	.	.	.	.	.	4g\	prin-	2.cc\	a-	.	.	.	.
.	8a\L	.	8a/L	.	.	.	.	.	.	.	8a\L	.	.	.	.	.	.	.
.	8g\J	.	8g/J	.	.	.	.	.	.	.	8g\J	.	.	.	.	.	.	.
.	4f#X\	.	4f#X/	.	.	.	.	.	.	.	4f#X\	-ci-	.	.	.	.	.	.
8dd/L	4f#\	.	4f#/	.	8dd\L	.	.	.	.	.	4f#\	-pi-	8dd\L	.	.	.	.	.
8cc/J	.	.	.	.	8cc\J	.	.	.	.	.	.	.	8cc\J	.	.	.	.	.
!	!	!	!	!	!LO:LB:g=original	!	!	!	!	!	!	!	!	!	!	!	!	!
=66	=66	=66	=66	=66	=66	=66	=66	=66	=66	=66	=66	=66	=66	=66	=66	=66	=66	=66
4b/	1g	.	1g	.	4b\	.	0r	.	0r	.	2g\	-o	4b\	.	00r	.	00r	.
8cc#X/L	.	.	.	.	8cc\L	.	.	.	.	.	.	.	8cc#X\L	.	.	.	.	.
8dd/J	.	.	.	.	8dd\J	.	.	.	.	.	.	.	8dd\J	.	.	.	.	.
4ee/	.	.	.	.	4ee\	.	.	.	.	.	2g\	et	4ee\	.	.	.	.	.
4dd/	.	.	.	.	4dd\	.	.	.	.	.	.	.	4dd\	.	.	.	.	.
=67	=67	=67	=67	=67	=67	=67	=67	=67	=67	=67	=67	=67	=67	=67	=67	=67	=67	=67
4cc#X/	2g\	.	2g/	.	4cc#X\	.	.	.	.	.	2g\	nunc	4cc#X\	.	.	.	.	.
4a/	.	.	.	.	4a\	.	.	.	.	.	.	.	4a\	.	.	.	.	.
2dd/	2f#X\	.	2f#X/	.	2dd\	.	.	.	.	.	2f#X\	et	2dd\	.	.	.	.	.
=68	=68	=68	=68	=68	=68	=68	=68	=68	=68	=68	=68	=68	=68	=68	=68	=68	=68	=68
2dd/	1e	.	1e	.	2dd\	.	1r	.	1r	.	1e	Sem-	2dd\	.	.	.	.	.
2cc#X/	.	.	.	.	2cc#X\	.	.	.	.	.	.	.	2cc#X\	.	.	.	.	.
!LO:LB:g=original	!	!	!	!	!	!	!LO:LB:g=original	!	!LO:LB:g=original	!	!	!	!	!	!	!	!	!
=69	=69	=69	=69	=69	=69	=69	=69	=69	=69	=69	=69	=69	=69	=69	=69	=69	=69	=69
4dd/	4d\	.	2f#X/	.	2dd\	.	4r	.	2r	.	2f#X\	-per	2dd\	-men	.	.	.	.
*clefF4	*	*	*	*	*	*	*	*	*	*	*	*	*	*	*	*	*	*
4D\	4ryy	#_	.	.	.	.	4D\	a-	.	.	.	.	.	.	.	.	.	.
4d\	2ryy	.	2dd\	.	2ff#X\	.	4d\	.	2A\	a-	4dd\	et	2ff#X\	a-	.	.	.	.
4cn\	.	.	.	.	.	.	4cn\	.	.	.	4dd\	in	.	.	.	.	.	.
*v	*v	*	*	*	*	*	*	*	*	*	*	*	*	*	*	*	*	*
!	!	!	!	!	!	!	!	!	!	!LO:LB:g=original	!	!LO:LB:g=original	!	!	!	!	!
=70	=70	=70	=70	=70	=70	=70	=70	=70	=70	=70	=70	=70	=70	=70	=70	=70	=70
!	!	!	!	!LO:SIC:v:s=4ff#\	!	!	!	!	!	!	!	!LO:SIC:v:s=4ff#\	!	!	!	!	!
4B\	.	4dd\	.	4ff\	.	4B\	.	4d\	.	4dd\	Sae-	4ff\	.	00r	.	00r	.
4A\	.	8cc\L	.	8ee\L	.	4A\	.	4c\	.	8cc\L	.	8ee\L	.	.	.	.	.
!	!	!	!	!LO:SIC:v:s=8ff#\J	!	!	!	!	!	!	!	!LO:SIC:v:s=8ff#\J	!	!	!	!	!
.	.	8dd\J	.	8ff\J	.	.	.	.	.	8dd\J	.	8ff\J	.	.	.	.	.
2G\	8 6	4ee\	.	4gg\	.	2G\	.	2B\	-men	4ee\	-cu-	4gg\	.	.	.	.	.
.	n7r 5	4dd'\	.	4ffn\	.	.	.	.	.	4dd\	-la	4ffn\	.	.	.	.	.
!	!	!LO:LB:g=original	!	!	!	!	!	!	!	!	!	!	!	!	!	!	!
=71	=71	=71	=71	=71	=71	=71	=71	=71	=71	=71	=71	=71	=71	=71	=71	=71	=71
4G\	6_ 4_	1ccn	.	1ee	.	4G\	.	1G	a-	2.ccn\	Sae-	1ee	.	.	.	.	.
4C/	.	.	.	.	.	4C/	.	.	.	.	.	.	.	.	.	.	.
4c\	.	.	.	.	.	4c\	.	.	.	.	.	.	.	.	.	.	.
4B\	.	.	.	.	.	4B\	.	.	.	4cc\	-cu-	.	.	.	.	.	.
=72	=72	=72	=72	=72	=72	=72	=72	=72	=72	=72	=72	=72	=72	=72	=72	=72	=72
4A\	.	4cc\	.	4ee\	.	4A\	.	4c\	.	4cc\	-lo-	4ee\	.	.	.	.	.
4G\	.	8b\L	.	8dd\L	.	4G\	.	4B\	.	8b\L	.	8dd\L	.	.	.	.	.
.	.	8cc\J	.	8ee\J	.	.	.	.	.	8cc\J	.	8ee\J	.	.	.	.	.
2F\	8 6	4dd\	.	4ff\	.	2F\	.	2A\	-men	4dd\	.	4ff\	.	.	.	.	.
.	7 5	4cc\	.	4ee\	.	.	.	.	.	4cc\	-rum	4ee\	.	.	.	.	.
=73	=73	=73	=73	=73	=73	=73	=73	=73	=73	=73	=73	=73	=73	=73	=73	=73	=73
4F\	6_ 4_	1b	.	1dd	.	4F\	.	1F	a-	1b	a-	1dd	.	.	.	.	.
4BB/	.	.	.	.	.	4BB/	.	.	.	.	.	.	.	.	.	.	.
4B\	.	.	.	.	.	4B\	.	.	.	.	.	.	.	.	.	.	.
4A\	.	.	.	.	.	4A\	.	.	.	.	.	.	.	.	.	.	.
!	!	!	!	!	!	!LO:LB:g=original	!	!	!	!	!	!	!	!	!	!	!
=74	=74	=74	=74	=74	=74	=74	=74	=74	=74	=74	=74	=74	=74	=74	=74	=74	=74
4G\	.	4b\	.	4dd\	.	4G\	.	4B\	.	4b\	.	4dd\	.	00r	.	00r	.
4F\	.	8a\L	.	8cc\L	.	4F\	.	4A\	.	8a\L	.	8cc\L	.	.	.	.	.
.	.	8b\J	.	8dd\J	.	.	.	.	.	8b\J	.	8dd\J	.	.	.	.	.
2E\	8 6	4cc\	.	4ee\	.	2E\	.	2G/	-men	4cc\	.	4ee\	.	.	.	.	.
.	7 5	4b\	.	4dd\	.	.	.	.	.	4b\	.	4dd\	.	.	.	.	.
!	!	!	!	!	!	!	!	!LO:LB:g=original	!	!LO:LB:g=original	!	!LO:LB:g=original	!	!	!	!	!
=75	=75	=75	=75	=75	=75	=75	=75	=75	=75	=75	=75	=75	=75	=75	=75	=75	=75
4E\	6_ 4_	1a	.	1cc	.	4E\	.	1E	a-	1a	.	1cc	.	.	.	.	.
4AA/	.	.	.	.	.	4AA/	.	.	.	.	.	.	.	.	.	.	.
4A\	.	.	.	.	.	4A\	.	.	.	.	.	.	.	.	.	.	.
4G\	.	.	.	.	.	4G\	.	.	.	.	.	.	.	.	.	.	.
!LO:LB:g=original	!	!	!	!	!	!	!	!	!	!	!	!	!	!	!	!	!
=76	=76	=76	=76	=76	=76	=76	=76	=76	=76	=76	=76	=76	=76	=76	=76	=76	=76
4F\	.	4a/	.	4cc\	.	4F\	.	4A/	.	4a\	.	4cc\	.	.	.	.	.
4E\	.	8g/L	.	8b\L	.	4E\	.	4G/	.	8g\L	.	8b\L	.	.	.	.	.
.	.	8a/J	.	8cc\J	.	.	.	.	.	8a\J	.	8cc\J	.	.	.	.	.
!	!	!	!	!	!	!	!	!LO:SIC:v:s=2F#/	!	!	!	!	!	!	!	!	!
2D\	8 6	4b/	.	4dd\	.	2D\	.	2F/	-men	4b\	.	4dd\	.	.	.	.	.
.	7 5	4a/	.	4cc\	.	.	.	.	.	4a\	.	4cc\	.	.	.	.	.
=77	=77	=77	=77	=77	=77	=77	=77	=77	=77	=77	=77	=77	=77	=77	=77	=77	=77
4D\	6_ 4_	1g	.	1b	.	4D\	.	1D	a-	1g	.	1b	.	.	.	.	.
4GG/	.	.	.	.	.	4GG/	.	.	.	.	.	.	.	.	.	.	.
4G\	.	.	.	.	.	4G\	.	.	.	.	.	.	.	.	.	.	.
4F\	.	.	.	.	.	4F\	.	.	.	.	.	.	.	.	.	.	.
!	!	!	!	!	!	!LO:PB:g=original	!	!	!	!	!	!	!	!	!	!LO:LB:g=original	!
=78	=78	=78	=78	=78	=78	=78	=78	=78	=78	=78	=78	=78	=78	=78	=78	=78	=78
4E\	6	2g/	.	2cc\	.	4E\	men	2E/	-men	2g\	-men	2cc\	-men	2r	.	2r	.
4C/	.	.	.	.	.	4C\	.	.	.	.	.	.	.	.	.	.	.
4c\	.	2g/	.	4ee\	.	4c\	a-	4c\	(et)	4g\	et	4ee\	a-	2cc\	.	2ee\	.
4B\	.	.	.	4gg\	.	4B\	.	4c\	in	4g\	in	4gg\	.	.	.	.	.
!	!	!LO:LB:g=original	!	!	!	!	!	!	!	!	!	!	!	!	!	!	!
=79	=79	=79	=79	=79	=79	=79	=79	=79	=79	=79	=79	=79	=79	=79	=79	=79	=79
4A\	.	2.g/	.	4ff\	.	4A\	.	2c\	Se-	2g\	Se-	4ff\	.	2cc\	.	2ee\	.
4G\	.	.	.	4ee\	.	4G\	.	.	.	.	.	4ee\	.	.	.	.	.
4F\	.	.	.	4dd\	.	4F\	.	4c\	-cu-	4g\	-cu-	4dd\	.	2cc\	.	2ee\	.
4E\	.	4g/	.	4cc\	.	4E\	.	4c\	-la	4g\	-la	4cc\	.	.	.	.	.
!	!	!	!	!	!	!	!	!	!	!	!	!LO:LB:g=original	!	!	!	!	!
=80	=80	=80	=80	=80	=80	=80	=80	=80	=80	=80	=80	=80	=80	=80	=80	=80	=80
2.F\	6 5	2a/	.	1dd	.	2.F\	.	4c\	Se-	2a\	Sae-	1dd	.	2cc\	.	1dd	.
.	.	.	.	.	.	.	.	8d\L	-cu-	.	.	.	.	.	.	.	.
.	.	.	.	.	.	.	.	8c\J	.	.	.	.	.	.	.	.	.
.	4_ 2_	2g/	.	.	.	.	.	4B\	-lo-	2g\	-cu-	.	.	2g/	.	.	.
!	!	!	!	!	!	!	!	!LO:TX:b:i:t=Verte Subitto	!	!	!	!	!	!	!	!	!
8G\L	.	.	.	.	.	8G\L	.	4B\	-rum	.	.	.	.	.	.	.	.
8F\J	.	.	.	.	.	8F\J	.	.	.	.	.	.	.	.	.	.	.
!	!	!	!	!	!	!	!	!LO:PB:g=original	!	!LO:LB:g=original	!	!	!	!	!	!	!
=81	=81	=81	=81	=81	=81	=81	=81	=81	=81	=81	=81	=81	=81	=81	=81	=81	=81
4E\	6_	2.g/	.	4cc\	.	4E\	.	2.c\	a-	2.g\	-lo-	4cc\	-men	2e/	.	2cc\	.
4G\	.	.	.	8ee\L	.	4G\	.	.	.	.	.	8ee\L	a-	.	.	.	.
.	.	.	.	8ff\J	.	.	.	.	.	.	.	8ff\J	.	.	.	.	.
4C/	.	.	.	4ee\	.	4C/	.	.	.	.	.	4ee\	.	2cc\	.	2ee\	.
8D/L	.	4g/	.	4cc\	.	8D/L	.	4c\	-men	4g\	-rum	4cc\	.	.	.	.	.
8E/J	.	.	.	.	.	8E/J	.	.	.	.	.	.	.	.	.	.	.
!LO:LB:g=original	!	!	!	!LO:LB:g=original	!	!LO:LB:g=original	!	!	!	!	!	!	!	!	!	!	!
=82	=82	=82	=82	=82	=82	=82	=82	=82	=82	=82	=82	=82	=82	=82	=82	=82	=82
2.F\	6 5	2a/	.	1dd	.	2.F\	.	4c\	Sae-	2a\	a-	1dd	.	2cc\	.	1dd	.
.	.	.	.	.	.	.	.	8d\L	-cu-	.	.	.	.	.	.	.	.
.	.	.	.	.	.	.	.	8c\J	.	.	.	.	.	.	.	.	.
.	4_ 2_	2g/	.	.	.	.	.	4B\	-lo-	2g\	.	.	.	2g/	.	.	.
8G\L	.	.	.	.	.	8G\L	.	4B\	-rum	.	.	.	.	.	.	.	.
8F\J	.	.	.	.	.	8F\J	.	.	.	.	.	.	.	.	.	.	.
=83	=83	=83	=83	=83	=83	=83	=83	=83	=83	=83	=83	=83	=83	=83	=83	=83	=83
4E\	6	2e/	.	2cc\	.	4E\	.	2.c\	a-	2e\	-men	2cc\	-men	2e/	.	2cc\	.
8F#X\L	.	.	.	.	.	8F#X\L	.	.	.	.	.	.	.	.	.	.	.
8G\J	.	.	.	.	.	8G\J	.	.	.	.	.	.	.	.	.	.	.
4A\	.	2a/	.	2ee\	.	4A\	.	.	.	2a\	a-	2ee\	a-	2r	.	2r	.
4G\	#4r 2	.	.	.	.	4G\	.	4c#X\	.	.	.	.	.	.	.	.	.
=84	=84	=84	=84	=84	=84	=84	=84	=84	=84	=84	=84	=84	=84	=84	=84	=84	=84
4F#X\	6	2a/	.	4dd\	.	4F#X\	.	1d	.	2a\	.	4dd\	.	4r	.	4r	.
4D\	n7r #	.	.	8ee\L	.	4D\	.	.	.	.	.	8ee\L	.	4dd\	.	4dd\	.
.	.	.	.	8ff#X\J	.	.	.	.	.	.	.	8ff#X\J	.	.	.	.	.
4G\	3_	2b/	.	2gg\	.	2G\	.	.	.	2b\	.	2gg\	.	4dd\	.	4dd\	.
4GG/	.	.	.	.	.	.	.	.	.	.	.	.	.	4g/	.	4dd\	.
!	!	!	!	!	!	!	!	!	!	!	!	!LO:LB:g=original	!	!LO:LB:g=original	!	!	!
=85	=85	=85	=85	=85	=85	=85	=85	=85	=85	=85	=85	=85	=85	=85	=85	=85	=85
4C/	6 5	1a	.	2gg\	.	2C/	.	2d\	.	1a	.	2gg\	.	2cc\	.	2ee\	.
4AA/	.	.	.	.	.	.	.	.	.	.	.	.	.	.	.	.	.
!	!	!	!	!	!	!LO:SIC:v:s=2D/	!	!	!	!	!	!LO:SIC:v:s=2ff#\	!	!	!	!	!
4D/	#	.	.	2ff#X\	.	2C/	.	2d\	.	.	.	2ff\	.	2dd\	.	2dd\	.
4DD/	.	.	.	.	.	.	.	.	.	.	.	.	.	.	.	.	.
=86	=86	=86	=86	=86	=86	=86	=86	=86	=86	=86	=86	=86	=86	=86	=86	=86	=86
!	!	!LO:TX:a:i:t=Solo	!	!LO:TX:a:i:t=Solo	!	!	!	!	!	!	!	!	!	!	!	!	!
2GG/	.	4b\	.	2gg\	.	2G\	-men	2d\	-men	2b\	-men	2gg\	-men	2g/	.	2dd\	.
.	.	8dd\L	.	.	.	.	.	.	.	.	.	.	.	.	.	.	.
.	.	8b\J	.	.	.	.	.	.	.	.	.	.	.	.	.	.	.
2r	.	4g/	.	2gg\	.	2r	.	2r	.	2r	.	2r	.	2r	.	2r	.
.	.	4f#X/	.	.	.	.	.	.	.	.	.	.	.	.	.	.	.
!	!	!	!	!	!	!LO:LB:g=original	!	!	!	!	!	!	!	!	!	!LO:LB:g=original	!
=87	=87	=87	=87	=87	=87	=87	=87	=87	=87	=87	=87	=87	=87	=87	=87	=87	=87
!	!	!	!	!	!	!	!	!	!	!LO:TX:a:t=13:color=grey	!	!	!	!	!	!	!
00r	.	4e/	.	2.gg\	.	00r	.	00r	.	00r	.	00r	.	00r	.	00r	.
.	.	4d/	.	.	.	.	.	.	.	.	.	.	.	.	.	.	.
.	.	4c/	.	.	.	.	.	.	.	.	.	.	.	.	.	.	.
.	.	4B/	.	4gg\	.	.	.	.	.	.	.	.	.	.	.	.	.
!	!	!LO:LB:g=original	!	!	!	!	!	!	!	!	!	!	!	!	!	!	!
=88	=88	=88	=88	=88	=88	=88	=88	=88	=88	=88	=88	=88	=88	=88	=88	=88	=88
.	.	2.c/	.	4gg\	.	.	.	.	.	.	.	.	.	.	.	.	.
.	.	.	.	8aa\L	.	.	.	.	.	.	.	.	.	.	.	.	.
.	.	.	.	8gg\J	.	.	.	.	.	.	.	.	.	.	.	.	.
.	.	.	.	4ff#X\	.	.	.	.	.	.	.	.	.	.	.	.	.
.	.	8d/L	.	4ff#\	.	.	.	.	.	.	.	.	.	.	.	.	.
.	.	8c/J	.	.	.	.	.	.	.	.	.	.	.	.	.	.	.
=89	=89	=89	=89	=89	=89	=89	=89	=89	=89	=89	=89	=89	=89	=89	=89	=89	=89
.	.	4B/	.	2.gg\	.	.	.	.	.	.	.	.	.	.	.	.	.
.	.	4d/	.	.	.	.	.	.	.	.	.	.	.	.	.	.	.
.	.	4G/	.	.	.	.	.	.	.	.	.	.	.	.	.	.	.
.	.	8A/L	.	4gg\	.	.	.	.	.	.	.	.	.	.	.	.	.
.	.	8B/J	.	.	.	.	.	.	.	.	.	.	.	.	.	.	.
=90	=90	=90	=90	=90	=90	=90	=90	=90	=90	=90	=90	=90	=90	=90	=90	=90	=90
.	.	2.c/	.	4gg\	.	.	.	.	.	.	.	.	.	.	.	.	.
.	.	.	.	8aa\L	.	.	.	.	.	.	.	.	.	.	.	.	.
.	.	.	.	8gg\J	.	.	.	.	.	.	.	.	.	.	.	.	.
.	.	.	.	4ff#X\	.	.	.	.	.	.	.	.	.	.	.	.	.
.	.	8d/L	.	4ff#\	.	.	.	.	.	.	.	.	.	.	.	.	.
.	.	8c/J	.	.	.	.	.	.	.	.	.	.	.	.	.	.	.
=91	=91	=91	=91	=91	=91	=91	=91	=91	=91	=91	=91	=91	=91	=91	=91	=91	=91
00r	.	4B/	.	4gg\	.	00r	.	00r	.	00r	.	00r	.	00r	.	00r	.
.	.	4d/	.	8bb\L	.	.	.	.	.	.	.	.	.	.	.	.	.
.	.	.	.	8aa\J	.	.	.	.	.	.	.	.	.	.	.	.	.
.	.	2g/	.	8gg\L	.	.	.	.	.	.	.	.	.	.	.	.	.
.	.	.	.	8ffn\	.	.	.	.	.	.	.	.	.	.	.	.	.
.	.	.	.	8ee\	.	.	.	.	.	.	.	.	.	.	.	.	.
.	.	.	.	8dd\J	.	.	.	.	.	.	.	.	.	.	.	.	.
=92	=92	=92	=92	=92	=92	=92	=92	=92	=92	=92	=92	=92	=92	=92	=92	=92	=92
.	.	4g/	.	4cc#X\	.	.	.	.	.	.	.	.	.	.	.	.	.
.	.	8a/L	.	4ee\	.	.	.	.	.	.	.	.	.	.	.	.	.
.	.	8g/J	.	.	.	.	.	.	.	.	.	.	.	.	.	.	.
.	.	8f/L	.	2aa\	.	.	.	.	.	.	.	.	.	.	.	.	.
.	.	8e/	.	.	.	.	.	.	.	.	.	.	.	.	.	.	.
.	.	8d/	.	.	.	.	.	.	.	.	.	.	.	.	.	.	.
.	.	8c/J	.	.	.	.	.	.	.	.	.	.	.	.	.	.	.
=93	=93	=93	=93	=93	=93	=93	=93	=93	=93	=93	=93	=93	=93	=93	=93	=93	=93
.	.	4d/	.	8aa\L	.	.	.	.	.	.	.	.	.	.	.	.	.
!	!	!	!	!LO:SIC:v:s=8bb-\	!	!	!	!	!	!	!	!	!	!	!	!	!
.	.	.	.	8bb\	.	.	.	.	.	.	.	.	.	.	.	.	.
.	.	4f/	.	8aa\	.	.	.	.	.	.	.	.	.	.	.	.	.
.	.	.	.	8gg\J	.	.	.	.	.	.	.	.	.	.	.	.	.
.	.	2a/	.	8ff\L	.	.	.	.	.	.	.	.	.	.	.	.	.
.	.	.	.	8ee\	.	.	.	.	.	.	.	.	.	.	.	.	.
.	.	.	.	8dd\	.	.	.	.	.	.	.	.	.	.	.	.	.
.	.	.	.	8ccn\J	.	.	.	.	.	.	.	.	.	.	.	.	.
=94	=94	=94	=94	=94	=94	=94	=94	=94	=94	=94	=94	=94	=94	=94	=94	=94	=94
.	.	4a/	.	4b\	.	.	.	.	.	.	.	.	.	.	.	.	.
.	.	8g/L	.	4dd\	.	.	.	.	.	.	.	.	.	.	.	.	.
.	.	8f/J	.	.	.	.	.	.	.	.	.	.	.	.	.	.	.
.	.	8e/L	.	2gg\	.	.	.	.	.	.	.	.	.	.	.	.	.
.	.	8d/	.	.	.	.	.	.	.	.	.	.	.	.	.	.	.
.	.	8cn/	.	.	.	.	.	.	.	.	.	.	.	.	.	.	.
.	.	8B/J	.	.	.	.	.	.	.	.	.	.	.	.	.	.	.
!	!	!LO:LB:g=original	!	!LO:LB:g=original	!	!	!	!	!	!	!	!	!	!	!	!	!
=95	=95	=95	=95	=95	=95	=95	=95	=95	=95	=95	=95	=95	=95	=95	=95	=95	=95
00r	.	4c/	.	8gg\L	.	00r	.	00r	.	00r	.	00r	.	00r	.	00r	.
.	.	.	.	8aa\	.	.	.	.	.	.	.	.	.	.	.	.	.
.	.	4e/	.	8gg\	.	.	.	.	.	.	.	.	.	.	.	.	.
.	.	.	.	8ff\J	.	.	.	.	.	.	.	.	.	.	.	.	.
.	.	2g/	.	8ee\L	.	.	.	.	.	.	.	.	.	.	.	.	.
.	.	.	.	8dd\	.	.	.	.	.	.	.	.	.	.	.	.	.
.	.	.	.	8cc\	.	.	.	.	.	.	.	.	.	.	.	.	.
.	.	.	.	8b\J	.	.	.	.	.	.	.	.	.	.	.	.	.
=96	=96	=96	=96	=96	=96	=96	=96	=96	=96	=96	=96	=96	=96	=96	=96	=96	=96
.	.	4g/	.	4a/	.	.	.	.	.	.	.	.	.	.	.	.	.
.	.	8f/L	.	4cc/	.	.	.	.	.	.	.	.	.	.	.	.	.
.	.	8e/J	.	.	.	.	.	.	.	.	.	.	.	.	.	.	.
.	.	8d/L	.	2ff\	.	.	.	.	.	.	.	.	.	.	.	.	.
.	.	8c/	.	.	.	.	.	.	.	.	.	.	.	.	.	.	.
.	.	8B/	.	.	.	.	.	.	.	.	.	.	.	.	.	.	.
.	.	8A/J	.	.	.	.	.	.	.	.	.	.	.	.	.	.	.
=97	=97	=97	=97	=97	=97	=97	=97	=97	=97	=97	=97	=97	=97	=97	=97	=97	=97
.	.	4B/	.	8ff\L	.	.	.	.	.	.	.	.	.	.	.	.	.
.	.	.	.	8gg\	.	.	.	.	.	.	.	.	.	.	.	.	.
.	.	4d/	.	8ff\	.	.	.	.	.	.	.	.	.	.	.	.	.
.	.	.	.	8ee\J	.	.	.	.	.	.	.	.	.	.	.	.	.
.	.	2f/	.	8dd\L	.	.	.	.	.	.	.	.	.	.	.	.	.
.	.	.	.	8cc\	.	.	.	.	.	.	.	.	.	.	.	.	.
.	.	.	.	8b\	.	.	.	.	.	.	.	.	.	.	.	.	.
.	.	.	.	8a\J	.	.	.	.	.	.	.	.	.	.	.	.	.
=98	=98	=98	=98	=98	=98	=98	=98	=98	=98	=98	=98	=98	=98	=98	=98	=98	=98
.	.	4f/	.	4g#X/	.	.	.	.	.	.	.	.	.	.	.	.	.
.	.	8e/L	.	4b\	.	.	.	.	.	.	.	.	.	.	.	.	.
.	.	8d/J	.	.	.	.	.	.	.	.	.	.	.	.	.	.	.
.	.	8c/L	.	2ee\	.	.	.	.	.	.	.	.	.	.	.	.	.
.	.	8B/	.	.	.	.	.	.	.	.	.	.	.	.	.	.	.
.	.	8A/	.	.	.	.	.	.	.	.	.	.	.	.	.	.	.
.	.	8G#X/J	.	.	.	.	.	.	.	.	.	.	.	.	.	.	.
=99	=99	=99	=99	=99	=99	=99	=99	=99	=99	=99	=99	=99	=99	=99	=99	=99	=99
1r	.	2.A/	.	4ee\	.	00r	.	1r	.	1r	.	1r	.	00r	.	00r	.
.	.	.	.	8ff\L	.	.	.	.	.	.	.	.	.	.	.	.	.
.	.	.	.	8ee\J	.	.	.	.	.	.	.	.	.	.	.	.	.
.	.	.	.	8dd\L	.	.	.	.	.	.	.	.	.	.	.	.	.
.	.	.	.	8cc\	.	.	.	.	.	.	.	.	.	.	.	.	.
.	.	4c/	.	8b\	.	.	.	.	.	.	.	.	.	.	.	.	.
.	.	.	.	8a\J	.	.	.	.	.	.	.	.	.	.	.	.	.
!	!	!	!	!	!	!	!	!	!	!LO:LB:g=original	!	!	!	!	!	!	!
=100	=100	=100	=100	=100	=100	=100	=100	=100	=100	=100	=100	=100	=100	=100	=100	=100	=100
*clefC4	*	*	*	*	*	*	*	*	*	*	*	*	*	*	*	*	*
2r	.	2e/	.	2g#X/	.	.	.	2r	.	2r	.	2r	.	.	.	.	.
!	!	!	!LO:DY:a:t=f:rj	!	!	!	!	!	!	!	!	!	!	!	!	!	!
2e\	#_	4g#X/	f	4ee\	.	.	.	4e\	Si-	4g#X\	Si-	4ee\	Si-	.	.	.	.
.	.	4b/	.	4dd#X\	.	.	.	4e\	-cut	4b\	-cut	4dd#X\	-cut	.	.	.	.
!LO:LB:g=original	!	!	!	!	!	!	!	!	!	!	!	!	!	!	!	!	!
=101	=101	=101	=101	=101	=101	=101	=101	=101	=101	=101	=101	=101	=101	=101	=101	=101	=101
2.e\	.	4a/	.	4cc\	.	.	.	2.e\	e-	4a\	e-	4cc\	e-	.	.	.	.
.	.	4g#X/	.	4b/	.	.	.	.	.	4g#X\	.	4b\	.	.	.	.	.
.	.	4f#X/	.	4a/	.	.	.	.	.	4f#X\	.	4a\	-rat	.	.	.	.
4e\	.	4e/	.	4g#X/	.	.	.	4e\	-rat	4e\	-rat	4g#X\	.	.	.	.	.
!	!	!LO:LB:g=original	!	!	!	!	!	!	!	!	!	!	!	!	!	!	!
=102	=102	=102	=102	=102	=102	=102	=102	=102	=102	=102	=102	=102	=102	=102	=102	=102	=102
4e\	#4r_ 2_	1f#X	.	2.a/	.	.	.	4e\	in	2.f#X\	in	2.a\	in	.	.	.	.
8f#X\L	.	.	.	.	.	.	.	8f#X\L	prin-	.	.	.	.	.	.	.	.
8e\J	.	.	.	.	.	.	.	8e\J	.	.	.	.	.	.	.	.	.
4d#X\	6 5	.	.	.	.	.	.	4d#X\	-ci-	.	.	.	.	.	.	.	.
!	!	!	!	!	!	!	!	!	!	!LO:SIC:v:s=8g#\L	!	!	!	!	!	!	!
4d#\	.	.	.	8b/L	.	.	.	4d#\	-pi-	8g\L	prin-	8b\L	prin-	.	.	.	.
.	.	.	.	8a/J	.	.	.	.	.	8f#\J	.	8a\J	.	.	.	.	.
!	!	!	!	!	!	!	!	!LO:LB:g=original	!	!	!	!LO:LB:g=original	!	!	!	!	!
=103	=103	=103	=103	=103	=103	=103	=103	=103	=103	=103	=103	=103	=103	=103	=103	=103	=103
2.e\	#	4e/	.	4g#X/	.	00r	.	2.e\	-o	4e\	-ci-	4g#X\	-ci-	00r	.	00r	.
.	.	8g#X/L	.	4b/	.	.	.	.	.	8g#X\L	-pi-	4b\	-pi-	.	.	.	.
.	.	8a/J	.	.	.	.	.	.	.	8a\J	.	.	.	.	.	.	.
.	.	4g#/	.	4e/	.	.	.	.	.	4g#X\	-o	4e/	-[o]	.	.	.	.
4e\	.	4e/	.	8f/L	.	.	.	4e\	in	4e\	et	8f#X/L	(et)	.	.	.	.
.	.	.	.	8g#X/J	.	.	.	.	.	.	.	8g#/J	.	.	.	.	.
=104	=104	=104	=104	=104	=104	=104	=104	=104	=104	=104	=104	=104	=104	=104	=104	=104	=104
4e\	#4r_ 2_	1f#X	.	2.a/	.	.	.	4e\	prin-	2.f#X\	nunc	2.a\	nunc	.	.	.	.
8f#X\L	.	.	.	.	.	.	.	8f#X\L	.	.	.	.	.	.	.	.	.
8e\J	.	.	.	.	.	.	.	8e\J	.	.	.	.	.	.	.	.	.
4d#X\	6_ 5_	.	.	.	.	.	.	4d#X\	-ci-	.	.	.	.	.	.	.	.
!	!	!	!	!	!	!	!	!	!	!LO:SIC:v:s=8g#\L	!	!	!	!	!	!	!
4d#\	.	.	.	8b/L	.	.	.	4d#\	-pi-	8g\L	(et)	8b\L	(et)	.	.	.	.
.	.	.	.	8a/J	.	.	.	.	.	8f#\J	.	8a\J	.	.	.	.	.
!	!	!	!	!	!	!	!	!	!	!LO:LB:g=original	!	!	!	!	!	!	!
=105	=105	=105	=105	=105	=105	=105	=105	=105	=105	=105	=105	=105	=105	=105	=105	=105	=105
2.e\	#_	4e/	.	4g#X/	.	.	.	2.e\	-o	4e\	Sem-	4g#X\	Sem-	.	.	.	.
.	.	8g#X/L	.	4b/	.	.	.	.	.	8g#X\L	.	4b\	.	.	.	.	.
.	.	8a/J	.	.	.	.	.	.	.	8a\J	.	.	.	.	.	.	.
.	.	4g#/	.	4e/	.	.	.	.	.	4g#\	-per	4e/	.	.	.	.	.
4dn\	.	4e/	.	8f#X/L	.	.	.	4dn\	et	4e\	(et)	8f#X/L	.	.	.	.	.
.	.	.	.	8g#/J	.	.	.	.	.	.	.	8g#/J	.	.	.	.	.
!	!	!	!	!LO:LB:g=original	!	!	!	!	!	!	!	!	!	!	!	!	!
=106	=106	=106	=106	=106	=106	=106	=106	=106	=106	=106	=106	=106	=106	=106	=106	=106	=106
2.c\	6_	2.e/	.	4a/	.	.	.	2.c\	nunc	2.e\	nunc	4a\	.	.	.	.	.
.	.	.	.	4e/	.	.	.	.	.	.	.	4e/	.	.	.	.	.
.	.	.	.	2a/	.	.	.	.	.	.	.	2a\	.	.	.	.	.
8d\L	.	8f/L	.	.	.	.	.	8d\L	et	8f\L	et	.	.	.	.	.	.
8c\J	.	8e/J	.	.	.	.	.	8c\J	.	8e\J	.	.	.	.	.	.	.
!LO:LB:g=original	!	!	!	!	!	!	!	!LO:LB:g=original	!	!	!	!	!	!	!	!	!
=107	=107	=107	=107	=107	=107	=107	=107	=107	=107	=107	=107	=107	=107	=107	=107	=107	=107
1B	7	4d/	.	2a/	.	1r	.	1B	Sem-	4d\	Sem-	2a\	.	1r	.	1r	.
.	.	8c/L	.	.	.	.	.	.	.	8c\L	.	.	.	.	.	.	.
.	.	8d/J	.	.	.	.	.	.	.	8d\J	.	.	.	.	.	.	.
.	6\	4e/	.	2g#X/	.	.	.	.	.	4e\	.	2g#X\	.	.	.	.	.
.	.	4d/	.	.	.	.	.	.	.	4d\	.	.	.	.	.	.	.
!	!	!	!	!	!	!	!	!	!	!	!	!LO:LB:g=original	!	!	!	!	!
=108	=108	=108	=108	=108	=108	=108	=108	=108	=108	=108	=108	=108	=108	=108	=108	=108	=108
4A\	.	2c/	.	2a/	.	4r	.	2A\	-per	2c\	-per	2a\	-per	2r	.	2r	.
*clefF4	*	*	*	*	*	*	*	*	*	*	*	*	*	*	*	*	*
4AA/	3_	.	.	.	.	4AA/	et	.	.	.	.	.	.	.	.	.	.
4A\	.	2a/	.	4cc\	.	4A\	in	4e\	et	4a\	(et)	4cc\	(et)	2e/	.	2ee\	.
4G#X\	.	.	.	4ee\	.	4G#X\	Se-	4e\	in	4a\	in	4ee\	in	.	.	.	.
!	!	!LO:PB:g=original	!	!	!	!	!	!	!	!LO:LB:g=original	!	!	!	!	!	!	!
=109	=109	=109	=109	=109	=109	=109	=109	=109	=109	=109	=109	=109	=109	=109	=109	=109	=109
4F\	.	2.a/	.	4dd\	.	4F\	-cu-	2e\	Sae-	2a\	Se-	4dd\	Se-	2e/	.	2ee\	.
4E\	.	.	.	4cc\	.	4E\	.	.	.	.	.	4cc\	.	.	.	.	.
4D\	.	.	.	4b\	.	4D\	-la	4e\	-cu-	4a\	-cu-	4b\	-cu-	2e/	.	2ee\	.
4C\	.	4a/	.	4a\	.	4C\	.	4e\	-la	4a\	-la	4a\	-la	.	.	.	.
=110	=110	=110	=110	=110	=110	=110	=110	=110	=110	=110	=110	=110	=110	=110	=110	=110	=110
2.D\	6 5	4a/	.	1b	.	2.D\	Sae-	2f\	Se-	4a\	Sae-	2b\	Se-	2dd\	.	2ff\	.
.	.	8b/L	.	.	.	.	.	.	.	8b\L	-cu-	.	.	.	.	.	.
.	.	8a/J	.	.	.	.	.	.	.	8a\J	.	.	.	.	.	.	.
.	#4r_ 2_	4g#X/	.	.	.	.	.	2e\	-cu-	4g#X\	-lo-	2b\	-cu-	2ee\	.	2ee\	.
!	!	!LO:TX:b:t=gis	!	!	!	!	!	!	!	!	!	!	!	!	!	!	!
8E\L	.	4g#/	.	.	.	8E\L	-cu-	.	.	4g#\	-rum	.	.	.	.	.	.
8D\J	.	.	.	.	.	8D\J	.	.	.	.	.	.	.	.	.	.	.
=111	=111	=111	=111	=111	=111	=111	=111	=111	=111	=111	=111	=111	=111	=111	=111	=111	=111
4C/	6_	2.a/	.	4a\	.	4C/	-lo-	2e\	-lo-	2.a\	a-	4a\	-lo-	2e/	.	2ee\	.
4E/	.	.	.	8cc\L	.	4E\	.	.	.	.	.	8cc\L	.	.	.	.	.
.	.	.	.	8dd\J	.	.	.	.	.	.	.	8dd\J	.	.	.	.	.
4AA/	.	.	.	4cc\	.	4AA/	-rum	2e\	-rum	.	.	4cc\	.	2e/	.	2ee\	.
8BB/L	.	4a/	.	4a\	.	8BB/L	a-	.	.	4a\	-men	4a\	-rum	.	.	.	.
8C/J	.	.	.	.	.	8C/J	.	.	.	.	.	.	.	.	.	.	.
!	!	!	!	!	!	!LO:LB:g=original	!	!LO:LB:g=original	!	!	!	!	!	!	!	!	!
=112	=112	=112	=112	=112	=112	=112	=112	=112	=112	=112	=112	=112	=112	=112	=112	=112	=112
2.D\	6 5	4a/	.	1b	.	2.D\	.	2f\	a-	4a\	Sae-	1b	a-	2dd\	.	2ff\	.
.	.	8b/L	.	.	.	.	.	.	.	8b\L	-cu-	.	.	.	.	.	.
.	.	8a/J	.	.	.	.	.	.	.	8a\J	.	.	.	.	.	.	.
.	#4r_ 2_	4g#X/	.	.	.	.	.	2e\	.	4g#X\	-lo-	.	.	2ee\	.	2ee\	.
8E\L	.	4g#/	.	.	.	8E\L	.	.	.	4g#\	-rum	.	.	.	.	.	.
8D\J	.	.	.	.	.	8D\J	.	.	.	.	.	.	.	.	.	.	.
!LO:LB:g=original	!	!	!	!	!	!	!	!	!	!LO:LB:g=original	!	!LO:LB:g=original	!	!	!	!	!
=113	=113	=113	=113	=113	=113	=113	=113	=113	=113	=113	=113	=113	=113	=113	=113	=113	=113
4C/	6_	2.a/	.	4a\	.	4C/	.	2e\	-men	2.a\	a-	4a\	-men	2e/	.	2ee\	.
4E\	.	.	.	8cc\L	.	4E\	.	.	.	.	.	8cc\L	a-	.	.	.	.
.	.	.	.	8dd\J	.	.	.	.	.	.	.	8dd\J	.	.	.	.	.
4AA/	.	.	.	4cc\	.	4AA/	.	2e\	a-	.	.	4cc\	.	2ee\	.	2ee\	.
8BB/L	.	4gn/	.	4a\	.	8BB/L	.	.	.	4gn\	.	4a\	.	.	.	.	.
8C/J	.	.	.	.	.	8C/J	.	.	.	.	.	.	.	.	.	.	.
!	!	!	!	!	!	!	!	!	!	!	!	!	!	!LO:LB:g=original	!	!	!
=114	=114	=114	=114	=114	=114	=114	=114	=114	=114	=114	=114	=114	=114	=114	=114	=114	=114
2.D\	3	4f/	.	4b\	.	2.D\	.	1f	.	4f\	.	4b\	.	2dd\	.	2ff\	.
.	.	8g#X/L	.	4cc\	.	.	.	.	.	8g\L	.	4cc\	.	.	.	.	.
.	.	8a/J	.	.	.	.	.	.	.	8a\J	.	.	.	.	.	.	.
.	6	4b/	.	4dd\	.	.	.	.	.	4b\	.	4dd\	.	2r	.	2r	.
4D#X\	5	4a/	.	4cc\	.	4D#X\	.	.	.	4a\	.	4cc\	.	.	.	.	.
=115	=115	=115	=115	=115	=115	=115	=115	=115	=115	=115	=115	=115	=115	=115	=115	=115	=115
2E\	#	4g#X/	.	2b\	.	2E\	.	1e	.	4g#X\	.	2b\	.	2r	.	2r	.
.	.	4e/	.	.	.	.	.	.	.	4e\	.	.	.	.	.	.	.
2AA/	.	2a/	.	2cc\	.	2A\	.	.	.	2a\	.	2cc\	.	2e/	.	2ee\	.
!	!	!LO:LB:g=original	!	!	!	!	!	!	!	!	!	!	!	!	!	!LO:LB:g=original	!
=116	=116	=116	=116	=116	=116	=116	=116	=116	=116	=116	=116	=116	=116	=116	=116	=116	=116
2E\	5 4	2a/	.	2.b\	.	1E	.	1e	.	2a\	.	1b	-men	4e/	.	4ee\	.
.	.	.	.	.	.	.	.	.	.	.	.	.	.	4e/	.	4ee\	.
2EE/	#	2g#X/	.	.	.	.	.	.	.	2g#X\	-men	.	.	4e/	.	4ee\	.
.	.	.	.	8a\L	.	.	.	.	.	.	.	.	.	4e/	.	4ee\	.
.	.	.	.	8b\J	.	.	.	.	.	.	.	.	.	.	.	.	.
!	!	!	!	!	!	!LO:LB:g=original	!	!	!	!LO:LB:g=original	!	!LO:PB:g=original	!	!	!	!	!
=117	=117	=117	=117	=117	=117	=117	=117	=117	=117	=117	=117	=117	=117	=117	=117	=117	=117
2AA/	.	4a/	.	4cc\	.	2AA/	-men	1e	-men	4a\	a-	4cc\	a-	2e/	.	2ee\	.
.	.	8cc\L	.	4ee\	.	.	.	.	.	2cc\	.	4ee\	.	.	.	.	.
.	.	8dd\J	.	.	.	.	.	.	.	.	.	.	.	.	.	.	.
4A\	#_	4cc\	.	4a/	.	4A\	a-	.	.	.	.	4a\	.	2r	.	2r	.
4Gn\	.	4a/	.	8b/L	.	4Gn\	.	.	.	4a\	.	8b\L	.	.	.	.	.
.	.	.	.	8cc#X/J	.	.	.	.	.	.	.	8cc#X\J	.	.	.	.	.
=118	=118	=118	=118	=118	=118	=118	=118	=118	=118	=118	=118	=118	=118	=118	=118	=118	=118
!	!	!	!	!	!	!	!	!	!	!	!	!	!	!	!	!LO:TX:a:t=4	!
4F\	6_	4a/	.	2.dd\	.	4F\	.	1A	a-	4a\	.	2.dd\	.	00r	.	00r	.
4A\	.	8f/L	.	.	.	4A\	.	.	.	2f\	.	.	.	.	.	.	.
.	.	8g/J	.	.	.	.	.	.	.	.	.	.	.	.	.	.	.
4D\	.	4f/	.	.	.	4D\	.	.	.	.	.	.	.	.	.	.	.
8E\L	.	4d/	.	4ccn\	.	8E\L	.	.	.	4d\	.	4ccn\	.	.	.	.	.
8F#X\J	.	.	.	.	.	8F#X\J	.	.	.	.	.	.	.	.	.	.	.
!	!	!	!	!	!	!	!	!LO:LB:g=original	!	!	!	!	!	!	!	!	!
=119	=119	=119	=119	=119	=119	=119	=119	=119	=119	=119	=119	=119	=119	=119	=119	=119	=119
2.G\	3_	4d/	.	4b\	.	2.G\	.	1d	.	4d\	.	4b\	.	.	.	.	.
.	.	8b\L	.	4dd\	.	.	.	.	.	2b\	.	4dd\	.	.	.	.	.
!	!	!LO:TX:a:t=c	!	!	!	!	!	!	!	!	!	!	!	!	!	!	!
.	.	8cc\J	.	.	.	.	.	.	.	.	.	.	.	.	.	.	.
.	.	4b\	.	4g/	.	.	.	.	.	.	.	4g\	.	.	.	.	.
4Fn\	.	4g/	.	8a/L	.	4Fn\	.	.	.	4g\	.	8a\L	.	.	.	.	.
.	.	.	.	8b/J	.	.	.	.	.	.	.	8b\J	.	.	.	.	.
!LO:LB:g=original	!	!	!	!LO:LB:g=original	!	!	!	!	!	!	!	!	!	!	!	!	!
=120	=120	=120	=120	=120	=120	=120	=120	=120	=120	=120	=120	=120	=120	=120	=120	=120	=120
4E\	6_	4g/	.	2.cc\	.	4E\	.	1G	.	4g\	.	2.cc\	.	.	.	.	.
4G\	.	8e/L	.	.	.	4G\	.	.	.	2e\	.	.	.	.	.	.	.
.	.	8f/J	.	.	.	.	.	.	.	.	.	.	.	.	.	.	.
4C\	.	4e/	.	.	.	4C/	.	.	.	.	.	.	.	.	.	.	.
8D\L	5	4c/	.	4b-X\	.	8D/L	.	.	.	4g\	.	4b-X\	.	.	.	.	.
8E\J	6	.	.	.	.	8E/J	.	.	.	.	.	.	.	.	.	.	.
!	!	!	!	!	!	!LO:LB:g=original	!	!	!	!	!	!	!	!	!	!	!
=121	=121	=121	=121	=121	=121	=121	=121	=121	=121	=121	=121	=121	=121	=121	=121	=121	=121
!	!	!	!	!	!	!	!	!LO:SIC:v:s=2F/	!	!LO:TX:b:i:t=Verte.	!	!	!	!	!	!	!
2.F\	3	1a	.	4.a/	.	2.F\	.	2G/	-men	1a	.	4a\	.	.	.	.	.
.	.	.	.	.	.	.	.	.	.	.	.	8bn\L	.	.	.	.	.
.	.	.	.	16bn\LL	.	.	.	.	.	.	.	8cc\J	.	.	.	.	.
.	.	.	.	16cc\JJ	.	.	.	.	.	.	.	.	.	.	.	.	.
!	!	!	!	!	!	!	!	!	!	!	!	!LO:LB:g=original	!	!	!	!	!
.	6	.	.	4dd\	.	.	.	4f\	a-	.	.	4dd\	.	.	.	.	.
4F#X\	5	.	.	4cc\	.	4F#X\	.	4e\	.	.	.	4cc\	.	.	.	.	.
!	!	!	!	!	!	!	!	!	!	!LO:LB:g=original	!	!	!	!	!	!	!
=122	=122	=122	=122	=122	=122	=122	=122	=122	=122	=122	=122	=122	=122	=122	=122	=122	=122
4G\	3_	2.g/	.	2b\	.	4G\	.	2d\	.	2.g\	.	2b\	.	4r	.	4r	.
!	!	!	!	!	!	!LO:SIC:v:s=4F#\	!	!	!	!	!	!	!	!	!	!	!
4F#X\	.	.	.	.	.	4Fn\	.	.	.	.	.	.	.	4g/	.	4dd\	.
2E\	6	.	.	2cc\	.	2E\	.	2c\	.	.	.	2cc\	.	2cc\	.	2ee\	.
.	.	8a/L	.	.	.	.	.	.	.	8a\L	.	.	.	.	.	.	.
.	.	8g/J	.	.	.	.	.	.	.	8g\J	.	.	.	.	.	.	.
!	!	!LO:LB:g=original	!	!	!	!	!	!	!	!	!	!	!	!	!	!	!
=123	=123	=123	=123	=123	=123	=123	=123	=123	=123	=123	=123	=123	=123	=123	=123	=123	=123
1D	7	4f/	.	2cc\	.	1D	.	2A/	.	4f\	.	2cc\	.	2cc\	.	1dd	.
.	.	8e/L	.	.	.	.	.	.	.	8e\L	.	.	.	.	.	.	.
.	.	8f/J	.	.	.	.	.	.	.	8f\J	.	.	.	.	.	.	.
.	6	4g/	.	2b\	.	.	.	2G/	.	4g\	.	2b\	.	2g/	.	.	.
.	.	4f/	.	.	.	.	.	.	.	4f\	.	.	.	.	.	.	.
!	!	!	!	!	!	!	!	!LO:LB:g=original	!	!	!	!	!	!	!	!	!
=124	=124	=124	=124	=124	=124	=124	=124	=124	=124	=124	=124	=124	=124	=124	=124	=124	=124
*^	*	*	*	*	*	*	*	*	*	*	*	*	*	*	*	*	*
2C/	2ryy	.	4e/	.	2cc\	.	2C/	-men	2G/	-men	2e\	-men	2cc\	-men	2e/	.	2cc\	.
.	.	.	8e/L	.	.	.	.	.	.	.	.	.	.	.	.	.	.	.
.	.	.	8g/J	.	.	.	.	.	.	.	.	.	.	.	.	.	.	.
*clefC1	*	*	*	*	*	*	*	*	*	*	*	*	*	*	*	*	*	*
2cc/	4cc\	.	4cc\	.	2cc\	.	2r	.	2r	.	4cc\	(et)	4cc\	Si-	2r	.	2r	.
.	4b\	.	4b\	.	.	.	.	.	.	.	4b\	in	4cc\	-cut	.	.	.	.
=125	=125	=125	=125	=125	=125	=125	=125	=125	=125	=125	=125	=125	=125	=125	=125	=125	=125	=125
2.cc/	4a\	.	4a/	.	2.cc\	.	00r	.	00r	.	4a\	Sae-	2.cc\	e-	00r	.	00r	.
.	4g\	.	4g/	.	.	.	.	.	.	.	4g\	.	.	.	.	.	.	.
.	4f\	.	4f/	.	.	.	.	.	.	.	4f\	-cu-	.	.	.	.	.	.
4cc/	4e\	.	4e/	.	4cc\	.	.	.	.	.	4e\	-la	4cc\	-rat	.	.	.	.
=126	=126	=126	=126	=126	=126	=126	=126	=126	=126	=126	=126	=126	=126	=126	=126	=126	=126	=126
4cc/	2.f\	.	2.f/	.	4cc\	.	.	.	.	.	2.f\	Sae-	4cc\	in	.	.	.	.
8dd/L	.	.	.	.	8dd\L	.	.	.	.	.	.	.	8dd\L	prin-	.	.	.	.
8cc/J	.	.	.	.	8cc\J	.	.	.	.	.	.	.	8cc\J	.	.	.	.	.
!	!	!	!	!	!	!	!	!	!	!	!	!	!LO:LB:g=original	!	!	!	!	!
4b/	.	.	.	.	4b\	.	.	.	.	.	.	.	4b\	-ci-	.	.	.	.
4b/	8g\L	.	8g/L	.	4b\	.	.	.	.	.	8g\L	-cu-	4b\	-pi-	.	.	.	.
.	8f\J	.	8f/J	.	.	.	.	.	.	.	8f\J	.	.	.	.	.	.	.
!LO:LB:g=original	!	!	!	!	!	!	!	!	!	!	!	!	!	!	!	!	!	!
=127	=127	=127	=127	=127	=127	=127	=127	=127	=127	=127	=127	=127	=127	=127	=127	=127	=127	=127
2.cc/	4e\	.	4e/	.	2.cc\	.	.	.	.	.	4e\	-lo-	2.cc\	-o	.	.	.	.
.	4g\	.	4g/	.	.	.	.	.	.	.	4g\	-rum	.	.	.	.	.	.
!	!	!	!	!	!	!	!	!	!	!	!LO:LB:g=original	!	!	!	!	!	!	!
.	4c\	.	4c/	.	.	.	.	.	.	.	4c\	a-	.	.	.	.	.	.
4cc/	8d\L	.	8d/L	.	4cc\	.	.	.	.	.	8d\L	.	4cc\	in	.	.	.	.
.	8e\J	.	8e/J	.	.	.	.	.	.	.	8e\J	.	.	.	.	.	.	.
=128	=128	=128	=128	=128	=128	=128	=128	=128	=128	=128	=128	=128	=128	=128	=128	=128	=128	=128
4cc/	2.f\	.	2.f/	.	4cc\	.	.	.	.	.	2.f\	.	4cc\	prin-	.	.	.	.
8dd/L	.	.	.	.	8dd\L	.	.	.	.	.	.	.	8dd\L	.	.	.	.	.
8cc/J	.	.	.	.	8cc\J	.	.	.	.	.	.	.	8cc\J	.	.	.	.	.
4b/	.	.	.	.	4b\	.	.	.	.	.	.	.	4b\	-ci-	.	.	.	.
4b/	8g\L	.	8g/L	.	4b\	.	.	.	.	.	8g\L	.	4b\	-pi-	.	.	.	.
.	8f\J	.	8f/J	.	.	.	.	.	.	.	8f\J	.	.	.	.	.	.	.
=129	=129	=129	=129	=129	=129	=129	=129	=129	=129	=129	=129	=129	=129	=129	=129	=129	=129	=129
2.cc/	4e\	.	4e/	.	2.cc\	.	0r	.	0r	.	4e\	.	2.cc\	-o	00r	.	00r	.
.	8f#X\L	.	8f#X/L	.	.	.	.	.	.	.	8f#X\L	.	.	.	.	.	.	.
.	8g\J	.	8g/J	.	.	.	.	.	.	.	8g\J	.	.	.	.	.	.	.
!	!	!	!LO:LB:g=original	!	!	!	!	!	!	!	!	!	!	!	!	!	!	!
.	4a\	.	4a/	.	.	.	.	.	.	.	4a\	.	.	.	.	.	.	.
4cc#X/	4g\	.	4g/	.	4cc#X\	.	.	.	.	.	4g\	.	4cc#X\	(et)	.	.	.	.
=130	=130	=130	=130	=130	=130	=130	=130	=130	=130	=130	=130	=130	=130	=130	=130	=130	=130	=130
4dd/	2f#X\	.	2f#X/	.	4dd\	.	.	.	.	.	2f#X\	.	4dd\	nunc	.	.	.	.
4ccn/	.	.	.	.	4ccn\	.	.	.	.	.	.	.	4ccn\	.	.	.	.	.
4b/	2g\	.	2g/	.	4b\	.	.	.	.	.	2g\	.	4b\	(et)	.	.	.	.
8cc/L	.	.	.	.	8cc\L	.	.	.	.	.	.	.	8cc\L	sem-	.	.	.	.
8b/J	.	.	.	.	8b\J	.	.	.	.	.	.	.	8b\J	.	.	.	.	.
!	!	!	!	!	!	!	!	!	!	!	!	!	!LO:LB:g=original	!	!	!	!	!
=131	=131	=131	=131	=131	=131	=131	=131	=131	=131	=131	=131	=131	=131	=131	=131	=131	=131	=131
1a	2g\	.	2g/	.	1a	.	1r	.	1r	.	2g\	.	1a	.	.	.	.	.
.	2f#X\	.	2f#X/	.	.	.	.	.	.	.	2f#X\	.	.	.	.	.	.	.
*v	*v	*	*	*	*	*	*	*	*	*	*	*	*	*	*	*	*	*
!LO:LB:g=original	!	!	!	!	!	!LO:LB:g=original	!	!	!	!LO:LB:g=original	!	!	!	!	!	!	!
=132	=132	=132	=132	=132	=132	=132	=132	=132	=132	=132	=132	=132	=132	=132	=132	=132	=132
4g\	.	1g	.	1b	.	4r	.	2r	.	1g	-men	2b\	-per	.	.	.	.
*clefF4	*	*	*	*	*	*	*	*	*	*	*	*	*	*	*	*	*
4GG/	3_	.	.	.	.	4GG/	a-	.	.	.	.	.	.	.	.	.	.
4G\	.	.	.	.	.	4G\	.	2d\	a-	.	.	4b\	(et)	.	.	.	.
4Fn\	.	.	.	.	.	4Fn\	.	.	.	.	.	4b\	in	.	.	.	.
=133	=133	=133	=133	=133	=133	=133	=133	=133	=133	=133	=133	=133	=133	=133	=133	=133	=133
1E	6	1g	.	4cc\	.	1E	.	1c	.	1g	a-	2.cc\	Se-	00r	.	00r	.
.	.	.	.	4g/	.	.	.	.	.	.	.	.	.	.	.	.	.
.	.	.	.	4cc\	.	.	.	.	.	.	.	.	.	.	.	.	.
.	5	.	.	4b\	.	.	.	.	.	.	.	4b\	-cu-	.	.	.	.
=134	=134	=134	=134	=134	=134	=134	=134	=134	=134	=134	=134	=134	=134	=134	=134	=134	=134
4F\	3_	1fn	.	1a	.	2.F\	.	1c	.	1fn	-men	2a\	-la	.	.	.	.
4FF/	.	.	.	.	.	.	.	.	.	.	.	.	.	.	.	.	.
4F\	.	.	.	.	.	.	.	.	.	.	.	4a\	Se-	.	.	.	.
4E\	.	.	.	.	.	4E\	.	.	.	.	.	4a\	-cu-	.	.	.	.
=135	=135	=135	=135	=135	=135	=135	=135	=135	=135	=135	=135	=135	=135	=135	=135	=135	=135
*	*	*	*	*	*	*	*	*	*	*	*ij	*	*	*	*	*	*
1D	6	1f	.	4b/	.	1D	.	1B	.	1f	a-	2.b\	-lo-	.	.	.	.
.	.	.	.	4f/	.	.	.	.	.	.	.	.	.	.	.	.	.
.	.	.	.	4b/	.	.	.	.	.	.	.	.	.	.	.	.	.
.	5	.	.	4a/	.	.	.	.	.	.	.	4a\	-rum	.	.	.	.
!	!	!	!	!LO:LB:g=original	!	!	!	!	!	!	!	!LO:LB:g=original	!	!	!	!	!
=136	=136	=136	=136	=136	=136	=136	=136	=136	=136	=136	=136	=136	=136	=136	=136	=136	=136
4E\	#_	1e	.	1g#X	.	2.E\	.	1B	.	1e	-men	1g#X	a-	.	.	.	.
*	*	*	*	*	*	*	*	*	*	*	*Xij	*	*	*	*	*	*
4EE/	.	.	.	.	.	.	.	.	.	.	.	.	.	.	.	.	.
4E\	.	.	.	.	.	.	.	.	.	.	.	.	.	.	.	.	.
4D\	.	.	.	.	.	4D\	.	.	.	.	.	.	.	.	.	.	.
=137	=137	=137	=137	=137	=137	=137	=137	=137	=137	=137	=137	=137	=137	=137	=137	=137	=137
1C#X	6	1e	.	4a/	.	1C#X	.	1A	.	1e	a-	2.a\	.	0r	.	0r	.
.	.	.	.	4e/	.	.	.	.	.	.	.	.	.	.	.	.	.
.	.	.	.	4a/	.	.	.	.	.	.	.	.	.	.	.	.	.
.	n5r	.	.	4gn/	.	.	.	.	.	.	.	4gn\	.	.	.	.	.
!	!	!	!	!	!	!LO:LB:g=original	!	!LO:LB:g=original	!	!	!	!	!	!	!	!	!
=138	=138	=138	=138	=138	=138	=138	=138	=138	=138	=138	=138	=138	=138	=138	=138	=138	=138
4D\	#_	1d	.	1f#X	.	2.D/	.	1A	.	1d	-men	1f#X	.	.	.	.	.
4DD/	.	.	.	.	.	.	.	.	.	.	.	.	.	.	.	.	.
4D\	.	.	.	.	.	.	.	.	.	.	.	.	.	.	.	.	.
4Cn/	.	.	.	.	.	4Cn/	.	.	.	.	.	.	.	.	.	.	.
=139	=139	=139	=139	=139	=139	=139	=139	=139	=139	=139	=139	=139	=139	=139	=139	=139	=139
1BB	6	1d	.	4g/	.	1BB	.	1G	.	1d	a-	2.g/	.	1r	.	1r	.
.	.	.	.	4d/	.	.	.	.	.	.	.	.	.	.	.	.	.
.	.	.	.	4g/	.	.	.	.	.	.	.	.	.	.	.	.	.
.	n5r	.	.	4fn/	.	.	.	.	.	.	.	4fn/	.	.	.	.	.
!	!	!	!	!	!	!	!	!	!	!	!	!	!	!LO:LB:g=original	!	!	!
=140	=140	=140	=140	=140	=140	=140	=140	=140	=140	=140	=140	=140	=140	=140	=140	=140	=140
4C/	3_	2c/	.	2e/	.	4C/	men	2G/	-men	2c\	-men	2e/	-men	2r	.	2r	.
8E\L	.	.	.	.	.	8E\L	a-	.	.	.	.	.	.	.	.	.	.
8G\J	.	.	.	.	.	8G\J	.	.	.	.	.	.	.	.	.	.	.
4c\	.	2g/	.	2cc\	.	4c\	.	4e\	a-	4g\	et	4cc\	Si-	2cc\	.	2ee\	.
4B\	.	.	.	.	.	4B\	.	4g\	.	4g\	in	4cc\	-cut	.	.	.	.
!	!	!LO:LB:g=original	!	!	!	!	!	!	!	!	!	!	!	!	!	!	!
=141	=141	=141	=141	=141	=141	=141	=141	=141	=141	=141	=141	=141	=141	=141	=141	=141	=141
4A\	.	2.g/	.	2.cc\	.	4A\	.	4f\	.	2g\	Se-	2.cc\	e-	2cc\	.	2ee\	.
4G\	.	.	.	.	.	4G\	.	4e\	.	.	.	.	.	.	.	.	.
4F\	.	.	.	.	.	4F\	.	4d\	.	4g\	-cu-	.	.	2cc\	.	2ee\	.
4E\	.	4g/	.	4cc\	.	4E\	.	4c\	.	4g\	-la	4cc\	-rat	.	.	.	.
!LO:LB:g=original	!	!	!	!	!	!	!	!	!	!LO:LB:g=original	!	!LO:LB:g=original	!	!	!	!LO:LB:g=original	!
=142	=142	=142	=142	=142	=142	=142	=142	=142	=142	=142	=142	=142	=142	=142	=142	=142	=142
2.F\	6 5	2a/	.	4cc\	.	2.F\	.	1d	.	2a\	Se-	4cc\	in	2dd\	.	2ff\	.
.	.	.	.	8dd\L	.	.	.	.	.	.	.	8dd\L	prin-	.	.	.	.
.	.	.	.	8cc\J	.	.	.	.	.	.	.	8cc\J	.	.	.	.	.
.	4_ 2_	2g/	.	4b\	.	.	.	.	.	2g\	-cu-	4b\	-ci-	2g/	.	2dd\	.
8G\L	.	.	.	4b\	.	8G\L	.	.	.	.	.	4b\	-pi-	.	.	.	.
8F\J	.	.	.	.	.	8F\J	.	.	.	.	.	.	.	.	.	.	.
!	!	!	!	!	!	!LO:LB:g=original	!	!	!	!	!	!	!	!	!	!	!
=143	=143	=143	=143	=143	=143	=143	=143	=143	=143	=143	=143	=143	=143	=143	=143	=143	=143
4E\	6_	2.g/	.	2.cc\	.	4E\	.	4c\	-men	2.g\	-lo-	2.cc\	-o	2e/	.	2cc\	.
4G\	.	.	.	.	.	4G\	.	8e\L	a-	.	.	.	.	.	.	.	.
.	.	.	.	.	.	.	.	8f\J	.	.	.	.	.	.	.	.	.
4C/	.	.	.	.	.	4C/	.	4e\	.	.	.	.	.	2cc\	.	2ee\	.
8D/L	.	4g/	.	4cc\	.	8D/L	.	4c\	.	4g\	-rum	4cc\	in	.	.	.	.
8E/J	.	.	.	.	.	8E/J	.	.	.	.	.	.	.	.	.	.	.
!	!	!	!	!	!	!	!	!LO:LB:g=original	!	!	!	!	!	!	!	!	!
=144	=144	=144	=144	=144	=144	=144	=144	=144	=144	=144	=144	=144	=144	=144	=144	=144	=144
2.F\	6 5	2a/	.	4cc\	.	2.F\	.	1d	.	2a\	a-	4cc\	prin-	2dd\	.	2ff\	.
.	.	.	.	8dd\L	.	.	.	.	.	.	.	8dd\L	.	.	.	.	.
.	.	.	.	8cc\J	.	.	.	.	.	.	.	8cc\J	.	.	.	.	.
.	4_ 2_	2g/	.	4b\	.	.	.	.	.	2g\	.	4b\	-ci-	2g/	.	2dd\	.
8G\L	.	.	.	4b\	.	8G\L	.	.	.	.	.	4b\	-pi-	.	.	.	.
8F\J	.	.	.	.	.	8F\J	.	.	.	.	.	.	.	.	.	.	.
=145	=145	=145	=145	=145	=145	=145	=145	=145	=145	=145	=145	=145	=145	=145	=145	=145	=145
4E\	6_	2.g/	.	2.cc\	.	4E\	-men	4c\	-men	2.g\	-men	2.cc\	-o	2e/	.	2cc\	.
4G\	.	.	.	.	.	4G\	a-	8e\L	a-	.	.	.	.	.	.	.	.
.	.	.	.	.	.	.	.	8f\J	.	.	.	.	.	.	.	.	.
4C/	.	.	.	.	.	4C/	.	4e\	.	.	.	.	.	2cc\	.	2ee\	.
8D/L	5	4g/	.	4b-X\	.	8D/L	.	4c\	.	4g\	a-	4b-X\	(et)	.	.	.	.
8E/J	6	.	.	.	.	8E/J	.	.	.	.	.	.	.	.	.	.	.
!	!	!	!	!	!	!LO:LB:g=original	!	!	!	!	!	!LO:LB:g=original	!	!	!	!	!
=146	=146	=146	=146	=146	=146	=146	=146	=146	=146	=146	=146	=146	=146	=146	=146	=146	=146
2.F\	3	1a	.	4a/	.	2.F\	.	2.f\	.	1a	.	4a\	nunc	2.dd\	.	2.ff\	.
.	.	.	.	8bn\L	.	.	.	.	.	.	.	8bn\L	(et)	.	.	.	.
.	.	.	.	8cc\J	.	.	.	.	.	.	.	8cc\J	.	.	.	.	.
.	6	.	.	4dd\	.	.	.	.	.	.	.	4dd\	Sem-	.	.	.	.
4F#X\	5	.	.	4cc\	.	4F#X\	.	4e\	.	.	.	4cc\	.	4cc\	.	4ee\	.
=147	=147	=147	=147	=147	=147	=147	=147	=147	=147	=147	=147	=147	=147	=147	=147	=147	=147
1G	3	2g/	.	4b\	.	2G\	-men	2d\	-men	2g\	-men	2b\	-per	2g/	.	2dd\	.
.	.	.	.	8b\L	.	.	.	.	.	.	.	.	.	.	.	.	.
.	.	.	.	8dd\J	.	.	.	.	.	.	.	.	.	.	.	.	.
.	.	2g/	.	4gg\	.	4B\	.	4d\	(et)	4g\	(et)	4gg\	(et)	2g/	.	2dd\	.
.	.	.	.	4ff#X\	.	4d\	a-	4d\	in	4g\	in	4ff#X\	in	.	.	.	.
!	!	!	!	!	!	!	!	!LO:LB:g=original	!	!LO:LB:g=original	!	!	!	!LO:LB:g=original	!	!	!
=148	=148	=148	=148	=148	=148	=148	=148	=148	=148	=148	=148	=148	=148	=148	=148	=148	=148
!LO:TX:a:i:t=pedal	!	!	!	!	!	!	!	!	!	!	!	!	!	!	!	!	!
!LO:TX:b:t=2	!	!	!	!	!	!	!	!	!	!	!	!	!	!	!	!	!
1GG	.	2.g/	.	4ee\	.	4c\	.	2d\	Sae-	2g\	Se-	4ee\	Se-	2g/	.	2dd\	.
.	.	.	.	4dd\	.	4B\	.	.	.	.	.	4dd\	.	.	.	.	.
.	.	.	.	4cc\	.	4A\	.	4d\	-cu-	4g\	-cu-	4cc\	-cu-	2g/	.	2dd\	.
.	.	4g/	.	4b\	.	4G\	.	4d\	-la	4g\	-lo	4b\	-la	.	.	.	.
!	!	!LO:LB:g=original	!	!	!	!	!	!	!	!	!	!	!	!	!	!LO:LB:g=original	!
=149	=149	=149	=149	=149	=149	=149	=149	=149	=149	=149	=149	=149	=149	=149	=149	=149	=149
!LO:TX:b:t=3	!	!	!	!	!	!	!	!	!	!	!	!	!	!	!	!	!
1GG	.	4g/	.	2.cc\	.	1A	.	2e\	Sae-	4g\	Se-	2.cc\	Se-	2cc\	.	2ee\	.
.	.	8a/L	.	.	.	.	.	.	.	8a\L	-cu-	.	.	.	.	.	.
.	.	8g/J	.	.	.	.	.	.	.	8g\J	.	.	.	.	.	.	.
.	.	4f#X/	.	.	.	.	.	2d\	-cu-	4f#X\	-lo-	.	.	2dd\	.	2dd\	.
.	.	4f#/	.	8dd\L	.	.	.	.	.	4f#\	-rum	8dd\L	-cu-	.	.	.	.
.	.	.	.	8cc\J	.	.	.	.	.	.	.	8cc\J	.	.	.	.	.
!LO:LB:g=original	!	!	!	!	!	!	!	!	!	!	!	!	!	!	!	!	!
=150	=150	=150	=150	=150	=150	=150	=150	=150	=150	=150	=150	=150	=150	=150	=150	=150	=150
!LO:TX:b:t=4	!	!	!	!	!	!	!	!	!	!	!	!	!	!	!	!	!
1GG	.	2.g/	.	4b\	.	4G\	-men	2.d\	-lo-	2.g\	a-	4b\	-lo-	2g/	.	2dd\	.
.	.	.	.	4dd\	.	8B\L	a-	.	.	.	.	4dd\	.	.	.	.	.
.	.	.	.	.	.	8c\J	.	.	.	.	.	.	.	.	.	.	.
.	.	.	.	4g/	.	4B\	.	.	.	.	.	4g\	-rum	2g/	.	2dd\	.
.	.	4g/	.	8a/L	.	4G\	.	4d\	-rum	4g\	-men	8a\L	a-	.	.	.	.
.	.	.	.	8b/J	.	.	.	.	.	.	.	8b\J	.	.	.	.	.
!	!	!	!	!LO:LB:g=original	!	!LO:PB:g=original	!	!	!	!	!	!LO:LB:g=original	!	!	!	!	!
=151	=151	=151	=151	=151	=151	=151	=151	=151	=151	=151	=151	=151	=151	=151	=151	=151	=151
!LO:TX:b:t=5	!	!	!	!	!	!	!	!	!	!	!	!	!	!	!	!	!
1GG	.	4g/	.	2.cc\	.	1A	.	2e\	a-	4g\	Sae-	2.cc\	.	2cc\	.	2ee\	.
.	.	8a/L	.	.	.	.	.	.	.	8a\L	-cu-	.	.	.	.	.	.
.	.	8g/J	.	.	.	.	.	.	.	8g\J	.	.	.	.	.	.	.
.	.	4f#X/	.	.	.	.	.	2d\	.	4f#X\	-lo-	.	.	2dd\	.	2dd\	.
.	.	4f#/	.	8dd\L	.	.	.	.	.	4f#\	-rum	8dd\L	.	.	.	.	.
.	.	.	.	8cc\J	.	.	.	.	.	.	.	8cc\J	.	.	.	.	.
!	!	!	!	!	!	!	!	!	!	!LO:LB:g=original	!	!	!	!	!	!	!
=152	=152	=152	=152	=152	=152	=152	=152	=152	=152	=152	=152	=152	=152	=152	=152	=152	=152
!LO:TX:b:t=6	!	!	!	!	!	!	!	!	!	!	!	!	!	!	!	!	!
1GG	.	2.g/	.	4b\	.	2G\	-men	2d\	-men	2.g\	a-	4b\	-men	1g	.	1dd	.
.	.	.	.	4dd\	.	.	.	.	.	.	.	4dd\	a-	.	.	.	.
.	.	.	.	2gg\	.	2B\	a-	2d\	a-	.	.	2gg\	.	.	.	.	.
.	.	4g/	.	.	.	.	.	.	.	4g\	-men	.	.	.	.	.	.
!	!	!	!	!	!	!	!	!LO:LB:g=original	!	!	!	!	!	!	!	!	!
=153	=153	=153	=153	=153	=153	=153	=153	=153	=153	=153	=153	=153	=153	=153	=153	=153	=153
!LO:TX:b:t=7	!	!	!	!	!	!	!	!	!	!	!	!	!	!	!	!	!
1GG	.	2.a/	.	4gg\	.	2c\	.	2e\	.	2.a\	a-	4gg\	.	1G	.	1g	.
.	.	.	.	4ee\	.	.	.	.	.	.	.	4ee\	.	.	.	.	.
.	.	.	.	2ff\	.	2d\	.	2d\	.	.	.	2ff\	.	.	.	.	.
.	.	8b/L	.	.	.	.	.	.	.	8b\L	.	.	.	.	.	.	.
.	.	8a/J	.	.	.	.	.	.	.	8a\J	.	.	.	.	.	.	.
=154	=154	=154	=154	=154	=154	=154	=154	=154	=154	=154	=154	=154	=154	=154	=154	=154	=154
!LO:TX:b:t=8	!	!	!	!	!	!	!	!	!	!	!	!	!	!	!	!	!
1GG	.	2.g/	.	4ff\	.	2B\	.	2d\	.	2.g\	.	4ff\	.	1G	.	1g	.
.	.	.	.	4dd\	.	.	.	.	.	.	.	4dd\	.	.	.	.	.
.	.	.	.	2ee\	.	2c\	.	2c\	.	.	.	2ee\	.	.	.	.	.
.	.	8a/L	.	.	.	.	.	.	.	8a\L	.	.	.	.	.	.	.
.	.	8g/J	.	.	.	.	.	.	.	8g\J	.	.	.	.	.	.	.
!	!	!LO:LB:g=original	!	!	!	!	!	!	!	!	!	!	!	!	!	!	!
=155	=155	=155	=155	=155	=155	=155	=155	=155	=155	=155	=155	=155	=155	=155	=155	=155	=155
!LO:TX:b:t=9	!	!	!	!	!	!	!	!	!	!	!	!	!	!	!	!	!
1GG	.	2.fn/	.	4ee\	.	2A\	.	2c\	.	2.f\	.	4ee\	.	1G	.	1g	.
.	.	.	.	4cc\	.	.	.	.	.	.	.	4cc\	.	.	.	.	.
.	.	.	.	2dd\	.	2B\	.	2B\	.	.	.	2dd\	.	.	.	.	.
.	.	8g/L	.	.	.	.	.	.	.	8g\L	.	.	.	.	.	.	.
.	.	8f/J	.	.	.	.	.	.	.	8f\J	.	.	.	.	.	.	.
=156	=156	=156	=156	=156	=156	=156	=156	=156	=156	=156	=156	=156	=156	=156	=156	=156	=156
!LO:TX:b:t=10	!	!	!	!	!	!	!	!	!	!	!	!	!	!	!	!	!
1GG	.	2.e/	.	4dd\	.	2G\	.	2B\	.	2.e\	.	4dd\	.	1G	.	1g	.
.	.	.	.	4b\	.	.	.	.	.	.	.	4b\	.	.	.	.	.
.	.	.	.	2cc\	.	2A\	.	2A\	.	.	.	2cc\	.	.	.	.	.
.	.	8f/L	.	.	.	.	.	.	.	8f\L	.	.	.	.	.	.	.
.	.	8e/J	.	.	.	.	.	.	.	8e\J	.	.	.	.	.	.	.
!	!	!	!	!	!	!LO:LB:g=original	!	!	!	!LO:LB:g=original	!	!LO:LB:g=original	!	!	!	!	!
=157	=157	=157	=157	=157	=157	=157	=157	=157	=157	=157	=157	=157	=157	=157	=157	=157	=157
!LO:TX:b:t=11	!	!	!	!	!	!	!	!	!	!	!	!	!	!	!	!	!
1GG	.	2.d/	.	4cc\	.	2F\	.	2A\	.	2.d\	.	4cc\	.	1G	.	1g	.
.	.	.	.	4a\	.	.	.	.	.	.	.	4a\	.	.	.	.	.
.	.	.	.	2b\	.	2G\	.	2G/	.	.	.	2b\	.	.	.	.	.
.	.	8c/L	.	.	.	.	.	.	.	8c\L	.	.	.	.	.	.	.
.	.	8d/J	.	.	.	.	.	.	.	8d\J	.	.	.	.	.	.	.
!	!	!	!	!	!	!	!	!	!	!	!	!	!	!LO:PB:g=original	!	!	!
=158	=158	=158	=158	=158	=158	=158	=158	=158	=158	=158	=158	=158	=158	=158	=158	=158	=158
!	!	!	!	!LO:TX:a:i:t=Solo	!	!	!	!	!	!	!	!	!	!	!	!	!
2C/	.	4e/	.	2cc\	.	2C/	-men	2G/	-men	2e\	-men	2cc\	-men	2c/	.	2e/	.
!	!	!LO:TX:a:i:t=Solo	!	!	!	!	!	!	!	!	!	!	!	!	!	!	!
.	.	8e/L	.	.	.	.	.	.	.	.	.	.	.	.	.	.	.
.	.	8g/J	.	.	.	.	.	.	.	.	.	.	.	.	.	.	.
2r	.	4cc\	.	2cc\	.	2r	.	2r	.	2r	.	2r	.	2r	.	2r	.
.	.	4b\	.	.	.	.	.	.	.	.	.	.	.	.	.	.	.
!	!	!	!	!	!	!	!	!LO:LB:g=original	!	!	!	!	!	!	!	!LO:LB:g=original	!
=159	=159	=159	=159	=159	=159	=159	=159	=159	=159	=159	=159	=159	=159	=159	=159	=159	=159
!LO:TX:a:t=13	!	!	!	!	!	!	!	!	!	!LO:TX:a:t=19:color=grey	!	!	!	!	!	!	!
00r	.	4a/	.	2.cc\	.	00r	.	00r	.	00r	.	00r	.	00r	.	00r	.
.	.	4g/	.	.	.	.	.	.	.	.	.	.	.	.	.	.	.
.	.	4f/	.	.	.	.	.	.	.	.	.	.	.	.	.	.	.
.	.	4e/	.	4cc\	.	.	.	.	.	.	.	.	.	.	.	.	.
=160	=160	=160	=160	=160	=160	=160	=160	=160	=160	=160	=160	=160	=160	=160	=160	=160	=160
.	.	2.f/	.	4cc\	.	.	.	.	.	.	.	.	.	.	.	.	.
.	.	.	.	8dd\L	.	.	.	.	.	.	.	.	.	.	.	.	.
.	.	.	.	8cc\J	.	.	.	.	.	.	.	.	.	.	.	.	.
.	.	.	.	4b\	.	.	.	.	.	.	.	.	.	.	.	.	.
.	.	8g/L	.	4b\	.	.	.	.	.	.	.	.	.	.	.	.	.
.	.	8f/J	.	.	.	.	.	.	.	.	.	.	.	.	.	.	.
=161	=161	=161	=161	=161	=161	=161	=161	=161	=161	=161	=161	=161	=161	=161	=161	=161	=161
.	.	4e/	.	2.cc\	.	.	.	.	.	.	.	.	.	.	.	.	.
.	.	4g/	.	.	.	.	.	.	.	.	.	.	.	.	.	.	.
.	.	4c/	.	.	.	.	.	.	.	.	.	.	.	.	.	.	.
.	.	8d/L	.	4cc\	.	.	.	.	.	.	.	.	.	.	.	.	.
.	.	8e/J	.	.	.	.	.	.	.	.	.	.	.	.	.	.	.
=162	=162	=162	=162	=162	=162	=162	=162	=162	=162	=162	=162	=162	=162	=162	=162	=162	=162
.	.	2.f/	.	4cc\	.	.	.	.	.	.	.	.	.	.	.	.	.
.	.	.	.	8dd\L	.	.	.	.	.	.	.	.	.	.	.	.	.
.	.	.	.	8cc\J	.	.	.	.	.	.	.	.	.	.	.	.	.
.	.	.	.	4b\	.	.	.	.	.	.	.	.	.	.	.	.	.
.	.	8g/L	.	4b\	.	.	.	.	.	.	.	.	.	.	.	.	.
.	.	8f/J	.	.	.	.	.	.	.	.	.	.	.	.	.	.	.
=163	=163	=163	=163	=163	=163	=163	=163	=163	=163	=163	=163	=163	=163	=163	=163	=163	=163
00r	.	2e/	.	4cc\	.	00r	.	00r	.	00r	.	00r	.	00r	.	00r	.
.	.	.	.	8ccc\L	.	.	.	.	.	.	.	.	.	.	.	.	.
.	.	.	.	8bb\J	.	.	.	.	.	.	.	.	.	.	.	.	.
.	.	2r	.	8aa\L	.	.	.	.	.	.	.	.	.	.	.	.	.
.	.	.	.	8gg\	.	.	.	.	.	.	.	.	.	.	.	.	.
.	.	.	.	8ff\	.	.	.	.	.	.	.	.	.	.	.	.	.
.	.	.	.	8ee\J	.	.	.	.	.	.	.	.	.	.	.	.	.
=164	=164	=164	=164	=164	=164	=164	=164	=164	=164	=164	=164	=164	=164	=164	=164	=164	=164
.	.	4r	.	1dd	.	.	.	.	.	.	.	.	.	.	.	.	.
.	.	8a/L	.	.	.	.	.	.	.	.	.	.	.	.	.	.	.
.	.	8g/J	.	.	.	.	.	.	.	.	.	.	.	.	.	.	.
.	.	8f/L	.	.	.	.	.	.	.	.	.	.	.	.	.	.	.
.	.	8e/	.	.	.	.	.	.	.	.	.	.	.	.	.	.	.
.	.	8d/	.	.	.	.	.	.	.	.	.	.	.	.	.	.	.
.	.	8c/J	.	.	.	.	.	.	.	.	.	.	.	.	.	.	.
=165	=165	=165	=165	=165	=165	=165	=165	=165	=165	=165	=165	=165	=165	=165	=165	=165	=165
.	.	1B	.	4dd\	.	.	.	.	.	.	.	.	.	.	.	.	.
.	.	.	.	8bb\L	.	.	.	.	.	.	.	.	.	.	.	.	.
.	.	.	.	8aa\J	.	.	.	.	.	.	.	.	.	.	.	.	.
.	.	.	.	8gg\L	.	.	.	.	.	.	.	.	.	.	.	.	.
.	.	.	.	8ff\	.	.	.	.	.	.	.	.	.	.	.	.	.
.	.	.	.	8ee\	.	.	.	.	.	.	.	.	.	.	.	.	.
.	.	.	.	8dd\J	.	.	.	.	.	.	.	.	.	.	.	.	.
=166	=166	=166	=166	=166	=166	=166	=166	=166	=166	=166	=166	=166	=166	=166	=166	=166	=166
.	.	4B/	.	1cc	.	.	.	.	.	.	.	.	.	.	.	.	.
.	.	8g/L	.	.	.	.	.	.	.	.	.	.	.	.	.	.	.
.	.	8f/J	.	.	.	.	.	.	.	.	.	.	.	.	.	.	.
.	.	8e/L	.	.	.	.	.	.	.	.	.	.	.	.	.	.	.
.	.	8d/	.	.	.	.	.	.	.	.	.	.	.	.	.	.	.
.	.	8c/	.	.	.	.	.	.	.	.	.	.	.	.	.	.	.
.	.	8B/J	.	.	.	.	.	.	.	.	.	.	.	.	.	.	.
!	!	!	!	!LO:LB:g=original	!	!	!	!	!	!	!	!	!	!	!	!	!
=167	=167	=167	=167	=167	=167	=167	=167	=167	=167	=167	=167	=167	=167	=167	=167	=167	=167
00r	.	1A	.	4cc\	.	00r	.	00r	.	00r	.	00r	.	00r	.	00r	.
.	.	.	.	8aa\L	.	.	.	.	.	.	.	.	.	.	.	.	.
.	.	.	.	8gg\J	.	.	.	.	.	.	.	.	.	.	.	.	.
.	.	.	.	8ff\L	.	.	.	.	.	.	.	.	.	.	.	.	.
.	.	.	.	8ee\	.	.	.	.	.	.	.	.	.	.	.	.	.
.	.	.	.	8dd\	.	.	.	.	.	.	.	.	.	.	.	.	.
.	.	.	.	8cc\J	.	.	.	.	.	.	.	.	.	.	.	.	.
=168	=168	=168	=168	=168	=168	=168	=168	=168	=168	=168	=168	=168	=168	=168	=168	=168	=168
!	!	!LO:TX:a:i:t=Więzień za Kratą	!	!	!	!	!	!	!	!	!	!	!	!	!	!	!
.	.	4A/	.	1b	.	.	.	.	.	.	.	.	.	.	.	.	.
.	.	8f/L	.	.	.	.	.	.	.	.	.	.	.	.	.	.	.
.	.	8e/J	.	.	.	.	.	.	.	.	.	.	.	.	.	.	.
.	.	8d/L	.	.	.	.	.	.	.	.	.	.	.	.	.	.	.
.	.	8c/	.	.	.	.	.	.	.	.	.	.	.	.	.	.	.
.	.	8B/	.	.	.	.	.	.	.	.	.	.	.	.	.	.	.
.	.	8A/J	.	.	.	.	.	.	.	.	.	.	.	.	.	.	.
!	!	!LO:LB:g=original	!	!	!	!	!	!	!	!	!	!	!	!	!	!	!
=169	=169	=169	=169	=169	=169	=169	=169	=169	=169	=169	=169	=169	=169	=169	=169	=169	=169
.	.	1G	.	4b\	.	.	.	.	.	.	.	.	.	.	.	.	.
.	.	.	.	8gg\L	.	.	.	.	.	.	.	.	.	.	.	.	.
.	.	.	.	8ff#X\J	.	.	.	.	.	.	.	.	.	.	.	.	.
.	.	.	.	8ee\L	.	.	.	.	.	.	.	.	.	.	.	.	.
.	.	.	.	8dd\	.	.	.	.	.	.	.	.	.	.	.	.	.
.	.	.	.	8cc\	.	.	.	.	.	.	.	.	.	.	.	.	.
.	.	.	.	8b\J	.	.	.	.	.	.	.	.	.	.	.	.	.
=170	=170	=170	=170	=170	=170	=170	=170	=170	=170	=170	=170	=170	=170	=170	=170	=170	=170
.	.	1A	.	8cc\L	.	.	.	.	.	.	.	.	.	.	.	.	.
.	.	.	.	8dd\	.	.	.	.	.	.	.	.	.	.	.	.	.
.	.	.	.	8ee\	.	.	.	.	.	.	.	.	.	.	.	.	.
.	.	.	.	8dd\J	.	.	.	.	.	.	.	.	.	.	.	.	.
.	.	.	.	8cc\L	.	.	.	.	.	.	.	.	.	.	.	.	.
.	.	.	.	8dd\	.	.	.	.	.	.	.	.	.	.	.	.	.
.	.	.	.	8ee\	.	.	.	.	.	.	.	.	.	.	.	.	.
.	.	.	.	8ff#X\J	.	.	.	.	.	.	.	.	.	.	.	.	.
=171	=171	=171	=171	=171	=171	=171	=171	=171	=171	=171	=171	=171	=171	=171	=171	=171	=171
!LO:TX:b:i:t=Verte Subitto	!	!	!	!	!	!	!	!	!	!	!	!	!	!	!	!	!
1r	.	2G/	.	4gg\	.	00r	.	00r	.	00r	.	00r	.	00r	.	00r	.
.	.	.	.	4gg\	.	.	.	.	.	.	.	.	.	.	.	.	.
.	.	2r	.	4gg\	.	.	.	.	.	.	.	.	.	.	.	.	.
.	.	.	.	4gg\	.	.	.	.	.	.	.	.	.	.	.	.	.
!LO:PB:g=original	!	!	!	!	!	!	!	!	!	!	!	!	!	!	!	!	!
=172	=172	=172	=172	=172	=172	=172	=172	=172	=172	=172	=172	=172	=172	=172	=172	=172	=172
4r	.	4r	.	1gg	.	.	.	.	.	.	.	.	.	.	.	.	.
4G\	.	4b\	.	.	.	.	.	.	.	.	.	.	.	.	.	.	.
4G\	.	4b\	.	.	.	.	.	.	.	.	.	.	.	.	.	.	.
4G\	.	4b\	.	.	.	.	.	.	.	.	.	.	.	.	.	.	.
=173	=173	=173	=173	=173	=173	=173	=173	=173	=173	=173	=173	=173	=173	=173	=173	=173	=173
1A-X	7	1cc	.	4gg\	.	.	.	.	.	.	.	.	.	.	.	.	.
.	.	.	.	8aa\L	.	.	.	.	.	.	.	.	.	.	.	.	.
.	.	.	.	8gg\J	.	.	.	.	.	.	.	.	.	.	.	.	.
!	!	!	!	!LO:TX:a:t=P:problem:# above	!	!	!	!	!	!	!	!	!	!	!	!	!
.	6\	.	.	4ff#X\	.	.	.	.	.	.	.	.	.	.	.	.	.
.	.	.	.	4ff#\	.	.	.	.	.	.	.	.	.	.	.	.	.
=174	=174	=174	=174	=174	=174	=174	=174	=174	=174	=174	=174	=174	=174	=174	=174	=174	=174
2G\	.	2b\	.	4gg\	.	.	.	.	.	.	.	.	.	.	.	.	.
.	.	.	.	4gg\	.	.	.	.	.	.	.	.	.	.	.	.	.
2r	.	2r	.	4gg\	.	.	.	.	.	.	.	.	.	.	.	.	.
.	.	.	.	4gg\	.	.	.	.	.	.	.	.	.	.	.	.	.
=175	=175	=175	=175	=175	=175	=175	=175	=175	=175	=175	=175	=175	=175	=175	=175	=175	=175
4r	.	4r	.	1gg	.	0r	.	0r	.	0r	.	0r	.	0r	.	0r	.
4G\	.	4b\	.	.	.	.	.	.	.	.	.	.	.	.	.	.	.
4G\	.	4b\	.	.	.	.	.	.	.	.	.	.	.	.	.	.	.
4G\	.	4b\	.	.	.	.	.	.	.	.	.	.	.	.	.	.	.
=176	=176	=176	=176	=176	=176	=176	=176	=176	=176	=176	=176	=176	=176	=176	=176	=176	=176
1A-X	7	1cc	.	4gg\	.	.	.	.	.	.	.	.	.	.	.	.	.
.	.	.	.	8aa\L	.	.	.	.	.	.	.	.	.	.	.	.	.
.	.	.	.	8gg\J	.	.	.	.	.	.	.	.	.	.	.	.	.
.	6\	.	.	4ff#X\	.	.	.	.	.	.	.	.	.	.	.	.	.
.	.	.	.	4ff#\	.	.	.	.	.	.	.	.	.	.	.	.	.
=177	=177	=177	=177	=177	=177	=177	=177	=177	=177	=177	=177	=177	=177	=177	=177	=177	=177
!	!	!	!	!	!	!	!	!	!	!	!	!LO:TX:b:i:t=Verte Subitto	!	!	!	!	!
2G\	.	2b\	.	2gg\	.	1r	.	1r	.	1r	.	1r	.	1r	.	1r	.
2r	.	2r	.	2r	.	.	.	.	.	.	.	.	.	.	.	.	.
!	!	!	!	!	!	!	!	!	!	!	!	!LO:PB:g=original	!	!	!	!	!
=178	=178	=178	=178	=178	=178	=178	=178	=178	=178	=178	=178	=178	=178	=178	=178	=178	=178
!LO:TX:a:i:t=pleno	!	!	!	!	!	!	!	!	!	!	!	!	!	!	!	!	!
4C/	.	8cc\L	.	8ee\L	.	4C/	Si-	2c\	Si-	2g\	Si-	2ee\	Si-	1cc	.	1ee	.
.	.	8ee\	.	8ccc\	.	.	.	.	.	.	.	.	.	.	.	.	.
8E\L	.	8dd\	.	8bb\	.	8E\L	-cut	.	.	.	.	.	.	.	.	.	.
8G\J	.	8ee\J	.	8ccc\J	.	8G\J	.	.	.	.	.	.	.	.	.	.	.
4c\	.	8ff\L	.	8ddd\L	.	4c\	e-	2c\	-cut	2g\	-cut	2ee\	-cut	.	.	.	.
.	.	8ee\	.	8ccc\	.	.	.	.	.	.	.	.	.	.	.	.	.
4B\	.	8dd\	.	8bb\	.	4B\	-rat	.	.	.	.	.	.	.	.	.	.
.	.	8ee\J	.	8ccc\J	.	.	.	.	.	.	.	.	.	.	.	.	.
!LO:LB:g=original	!	!LO:LB:g=original	!	!	!	!	!	!	!	!	!	!	!	!	!	!	!
=179	=179	=179	=179	=179	=179	=179	=179	=179	=179	=179	=179	=179	=179	=179	=179	=179	=179
4An\	.	8cc\L	.	8ee\L	.	4A\	in	2.c\	e-	2.g\	e-	2.ee\	e-	2cc\	.	2ee\	.
.	.	8ee\	.	8ccc\	.	.	.	.	.	.	.	.	.	.	.	.	.
4G\	.	8dd\	.	8bb\	.	4G\	prin-	.	.	.	.	.	.	.	.	.	.
.	.	8ee\J	.	8ccc\J	.	.	.	.	.	.	.	.	.	.	.	.	.
4F\	.	8ff\L	.	8ddd\L	.	4F\	-ci-	.	.	.	.	.	.	2cc\	.	2ee\	.
.	.	8ee\	.	8ccc\	.	.	.	.	.	.	.	.	.	.	.	.	.
4E\	.	8dd\	.	8bb\	.	4E\	-pi-	4c\	-rat	4g\	-rat	4ee\	-rat	.	.	.	.
.	.	8ee\J	.	8ccc\J	.	.	.	.	.	.	.	.	.	.	.	.	.
!	!	!	!	!	!	!LO:LB:g=original	!	!	!	!	!	!	!	!	!	!	!
=180	=180	=180	=180	=180	=180	=180	=180	=180	=180	=180	=180	=180	=180	=180	=180	=180	=180
2.F\	6 5	4dd\	.	8bb\L	.	2.F\	-o	4c\	in	4a\	in	4dd\	in	2cc\	.	1dd	.
.	.	.	.	8ccc\	.	.	.	.	.	.	.	.	.	.	.	.	.
.	.	8dd\L	.	8ddd\	.	.	.	8d\L	prin-	4a\	prin-	4dd\	prin-	.	.	.	.
.	.	8cc\J	.	8ccc\J	.	.	.	8c\J	.	.	.	.	.	.	.	.	.
.	4_ 2_	4dd\	.	4bb\	.	.	.	4B\	-ci-	4g\	-ci-	4dd\	-ci-	2g/	.	.	.
8G\L	.	4dd\	.	4bb\	.	8G\L	(et)	4B\	-pi-	4g\	-pi-	4dd\	-pi-	.	.	.	.
8F\J	.	.	.	.	.	8F\J	.	.	.	.	.	.	.	.	.	.	.
!	!	!	!	!LO:LB:g=original	!	!	!	!	!	!LO:LB:g=original	!	!	!	!	!	!	!
=181	=181	=181	=181	=181	=181	=181	=181	=181	=181	=181	=181	=181	=181	=181	=181	=181	=181
4E\	6_	4ee\	.	4ccc\	.	4E\	nunc	2.c\	-o	2.g\	-o	2.ee\	-o	2e/	.	2cc\	.
4G\	.	8gg\L	.	8bb\L	.	4G\	.	.	.	.	.	.	.	.	.	.	.
.	.	8aa\J	.	8ccc\J	.	.	.	.	.	.	.	.	.	.	.	.	.
4C/	.	4gg\	.	8ddd\L	.	4C/	(et)	.	.	.	.	.	.	2cc\	.	2ee\	.
.	.	.	.	8ccc\	.	.	.	.	.	.	.	.	.	.	.	.	.
8D/L	.	4ee\	.	8bb\	.	8D\L	Sem-	4c\	et	4g\	(et)	4ee\	et	.	.	.	.
8E/J	.	.	.	8ccc\J	.	8E\J	.	.	.	.	.	.	.	.	.	.	.
!	!	!	!	!	!	!	!	!LO:LB:g=original	!	!	!	!	!	!	!	!	!
=182	=182	=182	=182	=182	=182	=182	=182	=182	=182	=182	=182	=182	=182	=182	=182	=182	=182
2.F\	6 5	4dd\	.	8bb\L	.	2.F\	-per	4c\	nunc	4a\	nunc	4dd\	nunc	2cc\	.	1dd	.
.	.	.	.	8ccc\	.	.	.	.	.	.	.	.	.	.	.	.	.
.	.	8dd\L	.	8ddd\	.	.	.	8d\L	et	4a\	(et)	4dd\	et	.	.	.	.
.	.	8cc\J	.	8ccc\J	.	.	.	8c\J	.	.	.	.	.	.	.	.	.
.	4_ 2_	4dd\	.	4bb\	.	.	.	2B\	Sem-	2g\	Sem-	2dd\	Sem-	2g/	.	.	.
8G\L	.	4dd\	.	4bb\	.	8G\L	(et)	.	.	.	.	.	.	.	.	.	.
8F\J	.	.	.	.	.	8F\J	.	.	.	.	.	.	.	.	.	.	.
!	!	!	!	!	!	!	!	!	!	!	!	!LO:LB:g=original	!	!	!	!	!
=183	=183	=183	=183	=183	=183	=183	=183	=183	=183	=183	=183	=183	=183	=183	=183	=183	=183
4E\	6_	4ee\	.	4ccc\	.	4E\	in	2c\	-per	2g\	-per	2ee\	-per	2e/	.	2cc\	.
4G\	.	8gg\L	.	8bb\L	.	4G\	Se-	.	.	.	.	.	.	.	.	.	.
.	.	8aa\J	.	8ccc\J	.	.	.	.	.	.	.	.	.	.	.	.	.
4C/	.	4gg\	.	8ddd\L	.	4C/	-cu-	4c\	(et)	4g\	(et)	4ee\	(et)	2cc\	.	2ee\	.
.	.	.	.	8ccc\	.	.	.	.	.	.	.	.	.	.	.	.	.
8D\L	.	4ee\	.	8bb\	.	8D\L	-la	4c\	in	4g\	in	4ee\	in	.	.	.	.
8E\J	.	.	.	8ccc\J	.	8E\J	.	.	.	.	.	.	.	.	.	.	.
!LO:LB:g=original	!	!	!	!	!	!LO:LB:g=original	!	!	!	!	!	!	!	!LO:LB:g=original	!	!	!
=184	=184	=184	=184	=184	=184	=184	=184	=184	=184	=184	=184	=184	=184	=184	=184	=184	=184
*	*	*	*	*rep	*	*	*	*	*	*	*	*	*	*	*	*	*
4F\	7_ 5_	8ff\L	.	4ccc\	.	4F\	Sae-	2c\	Sae-	2a\	Se-	2ee\	Se-	2cc\	.	2ee\	.
.	.	8ee\	.	.	.	.	.	.	.	.	.	.	.	.	.	.	.
4G\	.	8dd\	.	8bb\L	.	4G\	-cu-	.	.	.	.	.	.	.	.	.	.
.	.	8ee\J	.	8ccc\J	.	.	.	.	.	.	.	.	.	.	.	.	.
4A\	.	8ff\L	.	8ddd\L	.	4A\	.	4c\	-cu-	4a\	-cu-	4ee\	-cu-	4cc\	.	4ee\	.
.	.	8ee\	.	8ccc\	.	.	.	.	.	.	.	.	.	.	.	.	.
4G\	.	8dd\	.	8bb\	.	4A\	-lo-	4c\	-la	4a\	-la	4ee\	-la	4cc\	.	4ee\	.
.	.	8ee\J	.	8ccc\J	.	.	.	.	.	.	.	.	.	.	.	.	.
*	*	*	*	*Xrep	*	*	*	*	*	*	*	*	*	*	*	*	*
!	!	!	!	!	!	!	!	!	!	!	!	!	!	!	!	!LO:LB:g=original	!
=185	=185	=185	=185	=185	=185	=185	=185	=185	=185	=185	=185	=185	=185	=185	=185	=185	=185
*	*	*rep	*	*rep	*	*	*	*	*	*	*	*	*	*	*	*	*
4F\	.	8ff\L	.	4ccc\	.	4F\	.	4c\	Sae-	4a\	Se-	4ee\	Se-	2cc\	.	2ee\	.
.	.	8ee\	.	.	.	.	.	.	.	.	.	.	.	.	.	.	.
4G\	.	8dd\	.	8bb\L	.	4G\	.	4c\	-cu-	4a\	-cu-	4ee\	-cu-	.	.	.	.
.	.	8ee\J	.	8ccc\J	.	.	.	.	.	.	.	.	.	.	.	.	.
4A\	.	8ff\L	.	8ddd\L	.	4A\	.	2c\	-lo-	2a\	-lo-	2ee\	-lo-	2cc\	.	2ee\	.
.	.	8ee\	.	8ccc\	.	.	.	.	.	.	.	.	.	.	.	.	.
4F#X\	.	8dd\	.	8bb\	.	4F#X\	.	.	.	.	.	.	.	.	.	.	.
.	.	8ee\J	.	8ccc\J	.	.	.	.	.	.	.	.	.	.	.	.	.
*	*	*Xrep	*	*Xrep	*	*	*	*	*	*	*	*	*	*	*	*	*
!	!	!	!	!	!	!	!	!LO:LB:g=original	!	!	!	!	!	!	!	!	!
=186	=186	=186	=186	=186	=186	=186	=186	=186	=186	=186	=186	=186	=186	=186	=186	=186	=186
*	*	*rep	*	*rep	*	*	*	*	*	*	*	*	*	*	*	*	*
2G\	x	8ff\L	.	4ccc\	.	2G\	-rum	2c\	-rum	2g\	-rum	2ee\	-rum	2cc\	.	2ee\	.
.	.	8ee\	.	.	.	.	.	.	.	.	.	.	.	.	.	.	.
.	.	8dd\	.	8bb\L	.	.	.	.	.	.	.	.	.	.	.	.	.
.	.	8ee\J	.	8ccc\J	.	.	.	.	.	.	.	.	.	.	.	.	.
2r	.	8ff\L	.	8ddd\L	.	2r	.	2r	.	2r	.	2r	.	2r	.	2r	.
.	.	8ee\	.	8ccc\	.	.	.	.	.	.	.	.	.	.	.	.	.
.	.	8dd\	.	8bb\	.	.	.	.	.	.	.	.	.	.	.	.	.
.	.	8ee\J	.	8ccc\J	.	.	.	.	.	.	.	.	.	.	.	.	.
*	*	*Xrep	*	*Xrep	*	*	*	*	*	*	*	*	*	*	*	*	*
!	!	!	!	!	!	!	!	!	!	!LO:LB:g=original	!	!	!	!	!	!	!
=187	=187	=187	=187	=187	=187	=187	=187	=187	=187	=187	=187	=187	=187	=187	=187	=187	=187
!	!	!	!	!	!	!	!	!	!	!	!	!	!	!LO:TX:a:t=1	!	!	!
1r	.	8ccc\L	.	8eee\L	.	1r	.	1r	.	1r	.	1r	.	1r	.	1r	.
.	.	8bb\	.	8ddd\	.	.	.	.	.	.	.	.	.	.	.	.	.
.	.	8aa\	.	8ccc\	.	.	.	.	.	.	.	.	.	.	.	.	.
.	.	8gg\J	.	8bb\J	.	.	.	.	.	.	.	.	.	.	.	.	.
.	.	8ff\L	.	8aa\L	.	.	.	.	.	.	.	.	.	.	.	.	.
.	.	8ee\	.	8gg\	.	.	.	.	.	.	.	.	.	.	.	.	.
.	.	8dd\	.	8ff\	.	.	.	.	.	.	.	.	.	.	.	.	.
.	.	8cc\J	.	8ee\J	.	.	.	.	.	.	.	.	.	.	.	.	.
!	!	!	!	!	!	!	!	!	!	!	!	!LO:LB:g=original	!	!	!	!	!
=188	=188	=188	=188	=188	=188	=188	=188	=188	=188	=188	=188	=188	=188	=188	=188	=188	=188
4G\	3_	8b\L	.	8dd\L	.	1G	a-	1B	a-	1g	a-	1dd	a-	2g/	.	2dd\	.
.	.	8dd\	.	8bb\	.	.	.	.	.	.	.	.	.	.	.	.	.
4G\	.	8cc\	.	8aa\	.	.	.	.	.	.	.	.	.	.	.	.	.
.	.	8dd\J	.	8bb\J	.	.	.	.	.	.	.	.	.	.	.	.	.
4G\	.	8ee\L	.	8ccc\L	.	.	.	.	.	.	.	.	.	4g/	.	4dd\	.
.	.	8dd\	.	8bb\	.	.	.	.	.	.	.	.	.	.	.	.	.
4G\	.	8cc\	.	8aa\	.	.	.	.	.	.	.	.	.	4g/	.	4dd\	.
.	.	8dd\J	.	8bb\J	.	.	.	.	.	.	.	.	.	.	.	.	.
!	!	!LO:LB:g=original	!	!	!	!	!	!	!	!	!	!	!	!	!	!	!
=189	=189	=189	=189	=189	=189	=189	=189	=189	=189	=189	=189	=189	=189	=189	=189	=189	=189
!	!	!	!	!LO:TX:t=P:problem:takt nr 189 zapisany repetycją 	!	!	!	!	!	!	!	!	!	!	!	!	!
4GG/	.	8b\L	.	8dd\Lyy	.	1G	.	1B	.	1g	.	1dd	.	2g/	.	2dd\	.
.	.	8dd\	.	8bb\yy	.	.	.	.	.	.	.	.	.	.	.	.	.
4GG/	.	8cc\	.	8aa\yy	.	.	.	.	.	.	.	.	.	.	.	.	.
.	.	8dd\J	.	8bb\Jyy	.	.	.	.	.	.	.	.	.	.	.	.	.
4GG/	.	8ee\L	.	8ccc\Lyy	.	.	.	.	.	.	.	.	.	2g/	.	2dd\	.
.	.	8dd\	.	8bb\yy	.	.	.	.	.	.	.	.	.	.	.	.	.
4GG/	.	8cc\	.	8aa\yy	.	.	.	.	.	.	.	.	.	.	.	.	.
.	.	8dd\J	.	8bb\Jyy	.	.	.	.	.	.	.	.	.	.	.	.	.
!LO:LB:g=original	!	!	!	!	!	!LO:LB:g=original	!	!	!	!	!	!	!	!	!	!	!
=190	=190	=190	=190	=190	=190	=190	=190	=190	=190	=190	=190	=190	=190	=190	=190	=190	=190
2C/	x	2ee\	.	2ccc\	.	2C/	-men	2c\	-men	2g\	-men	2ee\	-men	2e/	.	2cc\	.
*	*	*	*	*	*	*	*	*	*ij	*	*ij	*	*	*	*	*	*
2G\	.	2ff 2g\	.	2bb 2dd 2g\	.	2G\	a-	2B\	a-	2g\	a-	2dd\	.	2g/	.	2dd\	.
!	!	!	!	!	!	!	!	!	!	!	!	!	!	!LO:LB:g=original	!	!	!
=191	=191	=191	=191	=191	=191	=191	=191	=191	=191	=191	=191	=191	=191	=191	=191	=191	=191
2c\	.	2ee 2g\	.	2ccc 2ee 2g\	.	2c\	-men	2c\	-men	2g\	-men	2ee\	a-	2cc\	.	2ee\	.
*	*	*	*	*	*	*	*ij	*	*	*	*	*	*	*	*	*	*
2G\	.	2ff 2g\	.	2bb 2dd 2g\	.	2G\	a-	2B\	a-	2g\	a-	2dd\	.	2g/	.	2ee\	.
!	!	!	!	!	!	!	!	!	!	!	!	!	!	!	!	!LO:LB:g=original	!
=192	=192	=192	=192	=192	=192	=192	=192	=192	=192	=192	=192	=192	=192	=192	=192	=192	=192
2C/	.	2ee 2g\	.	2ccc 2ee 2g\	.	2C/	-men	2c\	-men	2g\	-men	2ee\	-men	2e/	.	2cc\	.
*	*	*	*	*	*	*	*Xij	*	*Xij	*	*Xij	*	*	*	*	*	*
!LO:TX:b:i:t=Finiſ	!	!LO:TX:b:i:t=Finis	!	!	!	!LO:TX:b:i:t=ad M D G ad Finem	!	!LO:TX:b:i:t=a m d g ad Finem	!	!LO:TX:b:i:t=a m d g. ad Finem	!	!LO:TX:b:i:t=a m d g ad Finem	!	!LO:TX:b:i:t=A M D G ad Finem	!	!LO:TX:b:i:t=Finiſ	!
2r	.	2r	.	2r	.	2r	.	2r	.	2r	.	2r	.	2r	.	2r	.
==	==	==	==	==	==	==	==	==	==	==	==	==	==	==	==	==	==
*-	*-	*-	*-	*-	*-	*-	*-	*-	*-	*-	*-	*-	*-	*-	*-	*-	*-
!!!system-decoration: [(g1)][(g2)][(g3)]<s9>
!!!RDF**kern: | = vertical stroke
!!!RDF**dynam: f = for
!!!AIN: 1 alto 1 bass 2 cor 1 organ 1 soprn 1 tenor 2 violn
!!!ENC: Berenika Jozajtis
!!!END: 2021-11-28
!!!ENC: Andrzej Kubiczek
!!!END: 2021-12-11
